!!!!SEGMENT: pl-wtm--r-704-m--012_moniuszko-stanislaw--widma-no-6-sowa.krn
!!!cenid: 18xx:3067
!!!COM: Moniuszko, Stanisław
!!!COM-rismID:
!!!CDT: 1819/05/05-1872/06/04
!!!CNT: Polish
!!!GTL: Widma
!!!OTL: No. 6 – Sowa
!!!OMV: 012
!!!PDT: 1852
!!!AGN: Secular
!!!SMS-siglum: PL-Wtm
!!!SMS-shelfmark: R 704/M
!!!SMS-shelfwork: G
!!!SMS-variant:
!!!SMS-altvar:
!!!NIFC-rismSourceID: 1001093778
!!!NIFC-islandoraID:
!!!URL-pdf-islandora:
!!!URL-scan:
!!!ONB-nifc: UWAGA: skany 0042 (prawa strona) – 0046. Nie wpisywać tekstu rosyjskiego i samodzielnych dialogów poza krótkimi didaskaliami.
!!!AIN: 1 alto 4 empty 1 soprn 1 tenor
!!!key:
**kern	**kern	**dynam	**kern	**text	**text	**dynam	**kern	**text	**text	**dynam	**kern	**text	**text	**dynam	**kern	**text	**text	**dynam	**kern	**text	**text
*	*	*	*	*	*color:red	*	*	*	*color:red	*	*	*	*color:red	*	*	*	*color:red	*	*	*	*color:red
*group3	*group3	*	*group2	*	*	*	*group2	*	*	*	*group2	*	*	*	*group2	*	*	*	*group1	*	*
*part7	*part6	*part6	*part5	*part5	*part5	*part5	*part4	*part4	*part4	*part4	*part3	*part3	*part3	*part3	*part2	*part2	*part2	*part2	*part1	*part1	*part1
*staff7	*staff6	*	*staff5	*staff5	*staff5	*	*staff4	*staff4	*staff4	*	*staff3	*staff3	*staff3	*	*staff2	*staff2	*staff2	*	*staff1	*staff1	*staff1
*	*	*	*""Chór	*	*	*	*""Chór	*	*	*	*""Chór	*	*	*	*I""Chór	*	*	*	*	*	*
*Iempty	*Iempty	*	*Iempty	*	*	*	*Itenor	*	*	*	*Ialto	*	*	*	*Isoprn	*	*	*	*Iempty	*	*
*I"F:P:	*I"F:P:	*	*I"[Basso]	*	*	*	*I"[Tenore]	*	*	*	*I"[Alto]	*	*	*	*I"[Soprano]	*	*	*	*I"Sowa La strige	*	*
*	*	*	*	*	*	*	*	*	*	*	*	*	*	*	*	*	*	*	*	*	*
*clefF4	*clefG2	*	*clefF4	*	*	*	*clefGv2	*	*	*	*clefG2	*	*	*	*clefG2	*	*	*	*clefG2	*	*
*k[f#c#]	*k[f#c#]	*	*k[f#c#]	*	*	*	*k[f#c#]	*	*	*	*k[f#c#]	*	*	*	*k[f#c#]	*	*	*	*k[f#c#]	*	*
*d:	*d:	*	*d:	*	*	*	*d:	*	*	*	*d:	*	*	*	*d:	*	*	*	*d:	*	*
*M2/4	*M2/4	*	*M2/4	*	*	*	*M2/4	*	*	*	*M2/4	*	*	*	*M2/4	*	*	*	*M2/4	*	*
=1	=1	=1	=1	=1	=1	=1	=1	=1	=1	=1	=1	=1	=1	=1	=1	=1	=1	=1	=1	=1	=1
*kcancel	*kcancel	*	*kcancel	*	*	*	*kcancel	*	*	*	*kcancel	*	*	*	*kcancel	*	*	*	*kcancel	*	*
*tremolo	*	*	*	*	*	*	*	*	*	*	*	*	*	*	*	*	*	*	*	*	*
!	!LO:TX:t=P:pp[ianissimo]=pp.:global:problem	!	!	!	!	!	!	!	!	!	!	!	!	!	!	!	!	!	!	!	!
32AAA/LLL	2r	pp	2r	.	.	.	2r	.	.	.	2r	.	.	.	2r	.	.	.	2r	.	.
32AA/	.	.	.	.	.	.	.	.	.	.	.	.	.	.	.	.	.	.	.	.	.
32AAA/	.	.	.	.	.	.	.	.	.	.	.	.	.	.	.	.	.	.	.	.	.
32AA/	.	.	.	.	.	.	.	.	.	.	.	.	.	.	.	.	.	.	.	.	.
32AAA/	.	.	.	.	.	.	.	.	.	.	.	.	.	.	.	.	.	.	.	.	.
32AA/	.	.	.	.	.	.	.	.	.	.	.	.	.	.	.	.	.	.	.	.	.
32AAA/	.	.	.	.	.	.	.	.	.	.	.	.	.	.	.	.	.	.	.	.	.
32AA/	.	.	.	.	.	.	.	.	.	.	.	.	.	.	.	.	.	.	.	.	.
32AAA/	.	.	.	.	.	.	.	.	.	.	.	.	.	.	.	.	.	.	.	.	.
32AA/	.	.	.	.	.	.	.	.	.	.	.	.	.	.	.	.	.	.	.	.	.
32AAA/	.	.	.	.	.	.	.	.	.	.	.	.	.	.	.	.	.	.	.	.	.
32AA/	.	.	.	.	.	.	.	.	.	.	.	.	.	.	.	.	.	.	.	.	.
32AAA/	.	.	.	.	.	.	.	.	.	.	.	.	.	.	.	.	.	.	.	.	.
32AA/	.	.	.	.	.	.	.	.	.	.	.	.	.	.	.	.	.	.	.	.	.
32AAA/	.	.	.	.	.	.	.	.	.	.	.	.	.	.	.	.	.	.	.	.	.
32AA/JJJ	.	.	.	.	.	.	.	.	.	.	.	.	.	.	.	.	.	.	.	.	.
=2	=2	=2	=2	=2	=2	=2	=2	=2	=2	=2	=2	=2	=2	=2	=2	=2	=2	=2	=2	=2	=2
*rep	*	*	*	*	*	*	*	*	*	*	*	*	*	*	*	*	*	*	*	*	*
32AAA/LLL	2r	.	2r	.	.	.	2r	.	.	.	2r	.	.	.	2r	.	.	.	4r	.	.
32AA/	.	.	.	.	.	.	.	.	.	.	.	.	.	.	.	.	.	.	.	.	.
32AAA/	.	.	.	.	.	.	.	.	.	.	.	.	.	.	.	.	.	.	.	.	.
32AA/	.	.	.	.	.	.	.	.	.	.	.	.	.	.	.	.	.	.	.	.	.
32AAA/	.	.	.	.	.	.	.	.	.	.	.	.	.	.	.	.	.	.	.	.	.
32AA/	.	.	.	.	.	.	.	.	.	.	.	.	.	.	.	.	.	.	.	.	.
32AAA/	.	.	.	.	.	.	.	.	.	.	.	.	.	.	.	.	.	.	.	.	.
32AA/	.	.	.	.	.	.	.	.	.	.	.	.	.	.	.	.	.	.	.	.	.
32AAA/	.	.	.	.	.	.	.	.	.	.	.	.	.	.	.	.	.	.	8r	.	.
32AA/	.	.	.	.	.	.	.	.	.	.	.	.	.	.	.	.	.	.	.	.	.
32AAA/	.	.	.	.	.	.	.	.	.	.	.	.	.	.	.	.	.	.	.	.	.
32AA/	.	.	.	.	.	.	.	.	.	.	.	.	.	.	.	.	.	.	.	.	.
32AAA/	.	.	.	.	.	.	.	.	.	.	.	.	.	.	.	.	.	.	8a/	Nie	I-
32AA/	.	.	.	.	.	.	.	.	.	.	.	.	.	.	.	.	.	.	.	.	.
32AAA/	.	.	.	.	.	.	.	.	.	.	.	.	.	.	.	.	.	.	.	.	.
32AA/JJJ	.	.	.	.	.	.	.	.	.	.	.	.	.	.	.	.	.	.	.	.	.
*Xrep	*	*	*	*	*	*	*	*	*	*	*	*	*	*	*	*	*	*	*	*	*
=3	=3	=3	=3	=3	=3	=3	=3	=3	=3	=3	=3	=3	=3	=3	=3	=3	=3	=3	=3	=3	=3
*rep	*	*	*	*	*	*	*	*	*	*	*	*	*	*	*	*	*	*	*2\right	*	*
!	!LO:TX:b:t=cres_cen_do.:problem=dynamics with extention lines	!LO:HP:b:t=cres-cen-do.:ext=ud	!	!	!	!	!	!	!	!	!	!	!	!	!	!	!	!	!	!LO:SIC:v:l:s:t=mia-	!
32AAA/LLL	2r	<	2r	.	.	.	2r	.	.	.	2r	.	.	.	2r	.	.	.	2ee\	ma-	-gno-
32AA/	.	.	.	.	.	.	.	.	.	.	.	.	.	.	.	.	.	.	.	.	.
32AAA/	.	.	.	.	.	.	.	.	.	.	.	.	.	.	.	.	.	.	.	.	.
32AA/	.	.	.	.	.	.	.	.	.	.	.	.	.	.	.	.	.	.	.	.	.
32AAA/	.	.	.	.	.	.	.	.	.	.	.	.	.	.	.	.	.	.	.	.	.
32AA/	.	.	.	.	.	.	.	.	.	.	.	.	.	.	.	.	.	.	.	.	.
32AAA/	.	.	.	.	.	.	.	.	.	.	.	.	.	.	.	.	.	.	.	.	.
32AA/	.	.	.	.	.	.	.	.	.	.	.	.	.	.	.	.	.	.	.	.	.
32AAA/	.	.	.	.	.	.	.	.	.	.	.	.	.	.	.	.	.	.	.	.	.
32AA/	.	.	.	.	.	.	.	.	.	.	.	.	.	.	.	.	.	.	.	.	.
32AAA/	.	.	.	.	.	.	.	.	.	.	.	.	.	.	.	.	.	.	.	.	.
32AA/	.	.	.	.	.	.	.	.	.	.	.	.	.	.	.	.	.	.	.	.	.
32AAA/	.	.	.	.	.	.	.	.	.	.	.	.	.	.	.	.	.	.	.	.	.
32AA/	.	.	.	.	.	.	.	.	.	.	.	.	.	.	.	.	.	.	.	.	.
32AAA/	.	.	.	.	.	.	.	.	.	.	.	.	.	.	.	.	.	.	.	.	.
32AA/JJJ	.	.	.	.	.	.	.	.	.	.	.	.	.	.	.	.	.	.	.	.	.
*Xrep	*	*	*	*	*	*	*	*	*	*	*	*	*	*	*	*	*	*	*	*	*
=4	=4	=4	=4	=4	=4	=4	=4	=4	=4	=4	=4	=4	=4	=4	=4	=4	=4	=4	=4	=4	=4
*rep	*	*	*	*	*	*	*	*	*	*	*	*	*	*	*	*	*	*	*	*	*
32AAA/LLL	2r	.	2r	.	.	.	2r	.	.	.	2r	.	.	.	2r	.	.	.	8cc#\	-łeś	-ta
32AA/	.	.	.	.	.	.	.	.	.	.	.	.	.	.	.	.	.	.	.	.	.
32AAA/	.	.	.	.	.	.	.	.	.	.	.	.	.	.	.	.	.	.	.	.	.
32AA/	.	.	.	.	.	.	.	.	.	.	.	.	.	.	.	.	.	.	.	.	.
32AAA/	.	.	.	.	.	.	.	.	.	.	.	.	.	.	.	.	.	.	8a\	li-	ti
32AA/	.	.	.	.	.	.	.	.	.	.	.	.	.	.	.	.	.	.	.	.	.
32AAA/	.	.	.	.	.	.	.	.	.	.	.	.	.	.	.	.	.	.	.	.	.
32AA/	.	.	.	.	.	.	.	.	.	.	.	.	.	.	.	.	.	.	.	.	.
32AAA/	.	.	.	.	.	.	.	.	.	.	.	.	.	.	.	.	.	.	8e/	-toś-	fu
32AA/	.	.	.	.	.	.	.	.	.	.	.	.	.	.	.	.	.	.	.	.	.
32AAA/	.	.	.	.	.	.	.	.	.	.	.	.	.	.	.	.	.	.	.	.	.
32AA/	.	.	.	.	.	.	.	.	.	.	.	.	.	.	.	.	.	.	.	.	.
32AAA/	.	.	.	.	.	.	.	.	.	.	.	.	.	.	.	.	.	.	8c#/	-ci	cle-
32AA/	.	.	.	.	.	.	.	.	.	.	.	.	.	.	.	.	.	.	.	.	.
32AAA/	.	.	.	.	.	.	.	.	.	.	.	.	.	.	.	.	.	.	.	.	.
32AA/JJJ	.	.	.	.	.	.	.	.	.	.	.	.	.	.	.	.	.	.	.	.	.
*Xrep	*	*	*	*	*	*	*	*	*	*	*	*	*	*	*	*	*	*	*	*	*
=5	=5	=5	=5	=5	=5	=5	=5	=5	=5	=5	=5	=5	=5	=5	=5	=5	=5	=5	=5	=5	=5
*rep	*	*	*	*	*	*	*	*	*	*	*	*	*	*	*	*	*	*	*	*	*
32AAA/LLL	2r	.	2r	.	.	.	2r	.	.	.	2r	.	.	.	2r	.	.	.	2A/	pa-	-men-
32AA/	.	.	.	.	.	.	.	.	.	.	.	.	.	.	.	.	.	.	.	.	.
32AAA/	.	.	.	.	.	.	.	.	.	.	.	.	.	.	.	.	.	.	.	.	.
32AA/	.	.	.	.	.	.	.	.	.	.	.	.	.	.	.	.	.	.	.	.	.
32AAA/	.	.	.	.	.	.	.	.	.	.	.	.	.	.	.	.	.	.	.	.	.
32AA/	.	.	.	.	.	.	.	.	.	.	.	.	.	.	.	.	.	.	.	.	.
32AAA/	.	.	.	.	.	.	.	.	.	.	.	.	.	.	.	.	.	.	.	.	.
32AA/	.	.	.	.	.	.	.	.	.	.	.	.	.	.	.	.	.	.	.	.	.
32AAA/	.	.	.	.	.	.	.	.	.	.	.	.	.	.	.	.	.	.	.	.	.
32AA/	.	.	.	.	.	.	.	.	.	.	.	.	.	.	.	.	.	.	.	.	.
32AAA/	.	.	.	.	.	.	.	.	.	.	.	.	.	.	.	.	.	.	.	.	.
32AA/	.	.	.	.	.	.	.	.	.	.	.	.	.	.	.	.	.	.	.	.	.
32AAA/	.	.	.	.	.	.	.	.	.	.	.	.	.	.	.	.	.	.	.	.	.
32AA/	.	.	.	.	.	.	.	.	.	.	.	.	.	.	.	.	.	.	.	.	.
32AAA/	.	.	.	.	.	.	.	.	.	.	.	.	.	.	.	.	.	.	.	.	.
32AA/JJJ	.	.	.	.	.	.	.	.	.	.	.	.	.	.	.	.	.	.	.	.	.
*Xrep	*	*	*	*	*	*	*	*	*	*	*	*	*	*	*	*	*	*	*	*	*
=6	=6	=6	=6	=6	=6	=6	=6	=6	=6	=6	=6	=6	=6	=6	=6	=6	=6	=6	=6	=6	=6
*rep	*	*	*	*	*	*	*	*	*	*	*	*	*	*	*	*	*	*	*	*	*
32AAA/LLL	4r	.	4r	.	.	.	4r	.	.	.	4r	.	.	.	4r	.	.	.	8A/	-nie!	-za
32AA/	.	.	.	.	.	.	.	.	.	.	.	.	.	.	.	.	.	.	.	.	.
32AAA/	.	.	.	.	.	.	.	.	.	.	.	.	.	.	.	.	.	.	.	.	.
32AA/	.	.	.	.	.	.	.	.	.	.	.	.	.	.	.	.	.	.	.	.	.
32AAA/	.	.	.	.	.	.	.	.	.	.	.	.	.	.	.	.	.	.	8r	.	.
32AA/	.	[	.	.	.	.	.	.	.	.	.	.	.	.	.	.	.	.	.	.	.
32AAA/	.	.	.	.	.	.	.	.	.	.	.	.	.	.	.	.	.	.	.	.	.
32AA/	.	.	.	.	.	.	.	.	.	.	.	.	.	.	.	.	.	.	.	.	.
!	!	!	!	!	!	!	!	!	!	!	!	!	!	!	!LO:TX:a:t=Chór.:note=podkreślone	!	!	!	!	!	!
32AAA/	4a	.	4A\	Nie	.	.	4A/	Nie	I-	.	4a/	Nie	.	.	4a/	Nie	I-	.	4r	.	.
32AA/	.	.	.	.	.	.	.	.	.	.	.	.	.	.	.	.	.	.	.	.	.
32AAA/	.	.	.	.	.	.	.	.	.	.	.	.	.	.	.	.	.	.	.	.	.
32AA/	.	.	.	.	.	.	.	.	.	.	.	.	.	.	.	.	.	.	.	.	.
32AAA/	.	.	.	.	.	.	.	.	.	.	.	.	.	.	.	.	.	.	.	.	.
32AA/	.	.	.	.	.	.	.	.	.	.	.	.	.	.	.	.	.	.	.	.	.
32AAA/	.	.	.	.	.	.	.	.	.	.	.	.	.	.	.	.	.	.	.	.	.
32AA/JJJ	.	.	.	.	.	.	.	.	.	.	.	.	.	.	.	.	.	.	.	.	.
*Xrep	*	*	*	*	*	*	*	*	*	*	*	*	*	*	*	*	*	*	*	*	*
!!LO:LB:g=original
=7	=7	=7	=7	=7	=7	=7	=7	=7	=7	=7	=7	=7	=7	=7	=7	=7	=7	=7	=7	=7	=7
*	*tremolo	*	*	*	*	*	*	*	*	*	*	*	*	*	*	*	*	*	*	*	*
*	*2\right	*	*2\right	*	*	*	*2\right	*	*	*	*	*	*	*	*2\right	*	*	*	*	*	*
!	!LO:TX:t=P:global:problem=fff(ortissimo possibile)=fff.	!LO:DY:rj	!LO:TX:t=P:global:problem=fff(ortissimo possibile)=fff.	!	!	!LO:DY:b:rj	!LO:TX:t=P:global:problem=fff(ortissimo possibile)=fff.	!	!	!LO:DY:b:rj	!LO:TX:t=P:global:problem=fff(ortissimo possibile)=fff.	!	!	!LO:DY:b:rj	!LO:TX:t=P:global:problem=fff(ortissimo possibile)=fff.	!	!	!LO:DY:b:rj	!	!	!
32AAA/LLL 32EE	32cc#\LLL 32ee 32aa	fff	2c#\	zna-	.	fff	2e\	zna-	-gno-	fff	2a/	zna-	.	fff	2ee\ 2aa	zna-	-gno-	fff	2ryy	.	.
32AA/	32a\	.	.	.	.	.	.	.	.	.	.	.	.	.	.	.	.	.	.	.	.
32AAA/ 32EE	32cc#\ 32ee 32aa	.	.	.	.	.	.	.	.	.	.	.	.	.	.	.	.	.	.	.	.
32AA/	32a\	.	.	.	.	.	.	.	.	.	.	.	.	.	.	.	.	.	.	.	.
32AAA/ 32EE	32cc#\ 32ee 32aa	.	.	.	.	.	.	.	.	.	.	.	.	.	.	.	.	.	.	.	.
32AA/	32a\	.	.	.	.	.	.	.	.	.	.	.	.	.	.	.	.	.	.	.	.
32AAA/ 32EE	32cc#\ 32ee 32aa	.	.	.	.	.	.	.	.	.	.	.	.	.	.	.	.	.	.	.	.
32AA/	32a\	.	.	.	.	.	.	.	.	.	.	.	.	.	.	.	.	.	.	.	.
32AAA/ 32EE	32cc#\ 32ee 32aa	.	.	.	.	.	.	.	.	.	.	.	.	.	.	.	.	.	.	.	.
32AA/	32a\	.	.	.	.	.	.	.	.	.	.	.	.	.	.	.	.	.	.	.	.
32AAA/ 32EE	32cc#\ 32ee 32aa	.	.	.	.	.	.	.	.	.	.	.	.	.	.	.	.	.	.	.	.
32AA/	32a\	.	.	.	.	.	.	.	.	.	.	.	.	.	.	.	.	.	.	.	.
32AAA/ 32EE	32cc#\ 32ee 32aa	.	.	.	.	.	.	.	.	.	.	.	.	.	.	.	.	.	.	.	.
32AA/	32a\	.	.	.	.	.	.	.	.	.	.	.	.	.	.	.	.	.	.	.	.
32AAA/ 32EE	32cc#\ 32ee 32aa	.	.	.	.	.	.	.	.	.	.	.	.	.	.	.	.	.	.	.	.
32AA/JJJ	32a\JJJ	.	.	.	.	.	.	.	.	.	.	.	.	.	.	.	.	.	.	.	.
*	*Xtremolo	*	*	*	*	*	*	*	*	*	*	*	*	*	*	*	*	*	*	*	*
=8	=8	=8	=8	=8	=8	=8	=8	=8	=8	=8	=8	=8	=8	=8	=8	=8	=8	=8	=8	=8	=8
*rep	*	*	*	*ij	*	*	*	*ij	*	*	*	*ij	*	*	*	*	*	*	*	*	*
32AAA/LLL 32EE	8ee\	.	8c#\	-łeś	.	.	8c#\	-łeś	-ta	.	8a/	-łeś	.	.	8ee\	-łeś	-ta	.	2ryy	.	.
32AA/	.	.	.	.	.	.	.	.	.	.	.	.	.	.	.	.	.	.	.	.	.
32AAA/ 32EE	.	.	.	.	.	.	.	.	.	.	.	.	.	.	.	.	.	.	.	.	.
32AA/	.	.	.	.	.	.	.	.	.	.	.	.	.	.	.	.	.	.	.	.	.
32AAA/ 32EE	16ccc#\LL	.	8A\	li-	.	.	8A\	li-	ti-	.	16cc#\LL	li-	.	.	16cc#\LL	li-	ti	.	.	.	.
32AA/	.	.	.	.	.	.	.	.	.	.	.	.	.	.	.	.	.	.	.	.	.
32AAA/ 32EE	16aa\JJ	.	.	.	.	.	.	.	.	.	16a\JJ	.	.	.	16a\JJ	.	.	.	.	.	.
32AA/	.	.	.	.	.	.	.	.	.	.	.	.	.	.	.	.	.	.	.	.	.
32AAA/ 32EE	8ee\L	.	8E\	-toś-	.	.	8e\	-toś-	-fu	.	8e/	-toś-	.	.	8e/	-toś-	fu	.	.	.	.
32AA/	.	.	.	.	.	.	.	.	.	.	.	.	.	.	.	.	.	.	.	.	.
32AAA/ 32EE	.	.	.	.	.	.	.	.	.	.	.	.	.	.	.	.	.	.	.	.	.
32AA/	.	.	.	.	.	.	.	.	.	.	.	.	.	.	.	.	.	.	.	.	.
32AAA/ 32EE	8cc#\J	.	8C#\	-ci	.	.	8c#\	-ci	cle-	.	8c#/	-ci	.	.	8c#/	-ci	cle-	.	.	.	.
32AA/	.	.	.	.	.	.	.	.	.	.	.	.	.	.	.	.	.	.	.	.	.
32AAA/ 32EE	.	.	.	.	.	.	.	.	.	.	.	.	.	.	.	.	.	.	.	.	.
32AA/JJJ	.	.	.	.	.	.	.	.	.	.	.	.	.	.	.	.	.	.	.	.	.
*Xtremolo	*	*	*	*	*	*	*	*	*	*	*	*	*	*	*	*	*	*	*	*	*
*Xrep	*	*	*	*	*	*	*	*	*	*	*	*	*	*	*	*	*	*	*	*	*
=9	=9	=9	=9	=9	=9	=9	=9	=9	=9	=9	=9	=9	=9	=9	=9	=9	=9	=9	=9	=9	=9
(<16AA/LL	[<2a/	>	2AA/	pa-	.	.	2A/	pa-	-men-	.	2A/	pa-	.	.	2A/	pa-	-men-	.	2ryy	.	.
*	*	*	*	*Xij	*	*	*	*Xij	*	*	*	*Xij	*	*	*	*	*	*	*	*	*
16GG/)	.	.	.	.	.	.	.	.	.	.	.	.	.	.	.	.	.	.	.	.	.
16AA'</	.	.	.	.	.	.	.	.	.	.	.	.	.	.	.	.	.	.	.	.	.
16AAA'/JJ	.	.	.	.	.	.	.	.	.	.	.	.	.	.	.	.	.	.	.	.	.
*rep	*	*	*	*	*	*	*	*	*	*	*	*	*	*	*	*	*	*	*	*	*
(16AA/LL	.	.	.	.	.	.	.	.	.	.	.	.	.	.	.	.	.	.	.	.	.
16GG/)	.	.	.	.	.	.	.	.	.	.	.	.	.	.	.	.	.	.	.	.	.
16AA'</	.	.	.	.	.	.	.	.	.	.	.	.	.	.	.	.	.	.	.	.	.
16AAA'</JJ	.	.	.	.	.	.	.	.	.	.	.	.	.	.	.	.	.	.	.	.	.
*Xrep	*	*	*	*	*	*	*	*	*	*	*	*	*	*	*	*	*	*	*	*	*
=10	=10	=10	=10	=10	=10	=10	=10	=10	=10	=10	=10	=10	=10	=10	=10	=10	=10	=10	=10	=10	=10
*rep	*	*	*	*	*	*	*	*	*	*	*	*	*	*	*	*	*	*	*	*	*
(<16AA/LL	4.a/]	.	8AA/	-nie!	.	.	8A/	-nie!	-za	.	8A/	-nie!	.	.	8A/	-nie!	-za	.	2ryy	.	.
16GG/)	.	.	.	.	.	.	.	.	.	.	.	.	.	.	.	.	.	.	.	.	.
16AA'/	.	.	8r	.	.	.	8r	.	.	.	8r	.	.	.	8r	.	.	.	.	.	.
16AAA'</JJ	.	.	.	.	.	.	.	.	.	.	.	.	.	.	.	.	.	.	.	.	.
(<16AA/LL	.	.	8r	.	.	.	8r	.	.	.	4r	.	.	.	4r	.	.	.	.	.	.
16GG/)	.	.	.	.	.	.	.	.	.	.	.	.	.	.	.	.	.	.	.	.	.
!	!	!	!LO:TX:t=P:p(iano)=p.:global:problem	!	!	!LO:DY:a:rj	!LO:TX:t=P:p(iano)=p.:global:problem	!	!	!LO:DY:a:rj	!	!	!	!	!	!	!	!	!	!	!
16AA'</	8a/	]	8A\	i	.	p	8A/	i	noi	p	.	.	.	.	.	.	.	.	.	.	.
16AAA'</JJ	.	.	.	.	.	.	.	.	.	.	.	.	.	.	.	.	.	.	.	.	.
*Xrep	*	*	*	*	*	*	*	*	*	*	*	*	*	*	*	*	*	*	*	*	*
=11	=11	=11	=11	=11	=11	=11	=11	=11	=11	=11	=11	=11	=11	=11	=11	=11	=11	=11	=11	=11	=11
*rep	*	*	*	*	*	*	*	*	*	*	*	*	*	*	*	*	*	*	*	*	*
!	!LO:TX:t=P:p(iano)=p.:global:problem	!LO:DY:rj	!LO:TX:t=P:problem=diminuendolike accent	!	!	!	!LO:TX:t=P:problem=diminuendolike accent	!	!	!	!	!	!	!	!	!	!	!	!	!	!
(<16AA/LL	(8d/L 8fn 8g#X	p	(>8B-X^>\L	my...	.	.	(<8B-X^>/L	my...	pur	.	4r	.	.	.	4r	.	.	.	2ryy	.	.
16GG/)	.	.	.	.	.	.	.	.	.	.	.	.	.	.	.	.	.	.	.	.	.
16AA'</	8c#/J) 8e 8a	.	8A\J)	.	.	.	8A/J)	.	.	.	.	.	.	.	.	.	.	.	.	.	.
16AAA'</JJ	.	.	.	.	.	.	.	.	.	.	.	.	.	.	.	.	.	.	.	.	.
*	*rep	*	*	*	*	*	*	*	*	*	*	*	*	*	*	*	*	*	*	*	*
(<16AA/LL	(8d/L 8f 8g#	.	4r	.	.	.	4r	.	.	.	8r	.	.	.	8r	.	.	.	.	.	.
16GG/)	.	.	.	.	.	.	.	.	.	.	.	.	.	.	.	.	.	.	.	.	.
!	!	!	!	!	!	!	!	!	!	!	!LO:TX:t=P:p(iano)=p.:global:problem	!	!	!LO:DY:a:rj	!LO:TX:t=P:p(iano)=p.:global:problem	!	!	!LO:DY:a:rj	!	!	!
16AA'</	8c#/J) 8e 8a	.	.	.	.	.	.	.	.	.	8a/	i	.	p	8a/	i	noi	p	.	.	.
16AAA'</JJ	.	.	.	.	.	.	.	.	.	.	.	.	.	.	.	.	.	.	.	.	.
*Xrep	*Xrep	*	*	*	*	*	*	*	*	*	*	*	*	*	*	*	*	*	*	*	*
=12	=12	=12	=12	=12	=12	=12	=12	=12	=12	=12	=12	=12	=12	=12	=12	=12	=12	=12	=12	=12	=12
*rep	*rep	*	*	*	*	*	*	*	*	*	*	*	*	*	*	*	*	*	*	*	*
!	!	!	!	!	!	!	!	!	!	!	!LO:TX:t=P:problem=diminuendolike accent	!	!	!	!LO:TX:t=P:problem=diminuendolike accent	!	!	!	!	!	!
(<16AA/LL	(8d/L 8fn 8g#X	.	4r	.	.	.	4r	.	.	.	(<8g#X^>/L	my	.	.	(<8g#X^>/L	my...	pur	.	2ryy	.	.
16GG/)	.	.	.	.	.	.	.	.	.	.	.	.	.	.	.	.	.	.	.	.	.
16AA'</	8c#/J) 8e 8a	.	.	.	.	.	.	.	.	.	8a/J)	.	.	.	8a/J)	.	.	.	.	.	.
16AAA'</JJ	.	.	.	.	.	.	.	.	.	.	.	.	.	.	.	.	.	.	.	.	.
*	*Xrep	*	*	*	*	*	*	*	*	*	*	*	*	*	*	*	*	*	*	*	*
*	*rep	*	*	*	*	*	*	*	*	*	*	*	*	*	*	*	*	*	*	*	*
(<16AA/LL	(8d/L 8f 8g#	.	8r	.	.	.	8r	.	.	.	4r	.	.	.	4r	.	.	.	.	.	.
16GG/)	.	.	.	.	.	.	.	.	.	.	.	.	.	.	.	.	.	.	.	.	.
16AA'</	8c#/J) 8e 8a	.	8A\	.	.	.	8A/	.	noi	.	.	.	.	.	.	.	.	.	.	.	.
16AAA'</JJ	.	.	.	.	.	.	.	.	.	.	.	.	.	.	.	.	.	.	.	.	.
*Xrep	*Xrep	*	*	*	*	*	*	*	*	*	*	*	*	*	*	*	*	*	*	*	*
!!LO:PB:g=original
=13	=13	=13	=13	=13	=13	=13	=13	=13	=13	=13	=13	=13	=13	=13	=13	=13	=13	=13	=13	=13	=13
!!mixed beam:problem
!	!LO:TX:t=P:problem=diminuendolike accent	!	!LO:TX:t=P:mixedbeam:problem	!	!	!	!	!	!	!	!	!	!	!	!	!	!	!	!	!	!
(<16AA/LL	(<8e-X^</L 8g 8ccn	.	(>8Cn^>/L	my	.	.	(>8cn^>\L	my	pur....	.	4r	.	.	.	4r	.	.	.	2ryy	.	.
16GG/)	.	.	.	.	.	.	.	.	.	.	.	.	.	.	.	.	.	.	.	.	.
16AA'</	8d/J) 8f# 8a	.	8A\J)	.	.	.	8A\J)	.	.	.	.	.	.	.	.	.	.	.	.	.	.
16AAA'</JJ	.	.	.	.	.	.	.	.	.	.	.	.	.	.	.	.	.	.	.	.	.
*rep	*rep	*	*	*	*	*	*	*	*	*	*	*	*	*	*	*	*	*	*	*	*
!	!LO:TX:b:t=molto_cres_cen_do.:problem=dynamics with extention lines	!LO:HP:b:t=molto_cres_cen_do.:ext=ud	!	!	!	!	!	!	!	!	!	!	!	!	!	!	!	!	!	!	!
(<16AA/LL	(8e-/L^< 8g 8cc	<	4r	.	.	.	4r	.	.	.	8r	.	.	.	8r	.	.	.	.	.	.
16GG/)	.	.	.	.	.	.	.	.	.	.	.	.	.	.	.	.	.	.	.	.	.
16AA'</	8d/J) 8f# 8a	.	.	.	.	.	.	.	.	.	8a/	nie	.	.	8a/	nie	sa-	.	.	.	.
16AAA'</JJ	.	.	.	.	.	.	.	.	.	.	.	.	.	.	.	.	.	.	.	.	.
*Xrep	*Xrep	*	*	*	*	*	*	*	*	*	*	*	*	*	*	*	*	*	*	*	*
=14	=14	=14	=14	=14	=14	=14	=14	=14	=14	=14	=14	=14	=14	=14	=14	=14	=14	=14	=14	=14	=14
*rep	*rep	*	*	*	*	*	*	*	*	*	*	*	*	*	*	*	*	*	*	*	*
(<16AA/LL	(<8e-X/L^< 8g 8ccn	.	4r	.	.	.	4r	.	.	.	8cn^>/	znaj-	.	.	8ccn^>\	znaj-	-re-	.	2ryy	.	.
16GG/)	.	.	.	.	.	.	.	.	.	.	.	.	.	.	.	.	.	.	.	.	.
16AA'</	8d/J) 8f# 8a	.	.	.	.	.	.	.	.	.	8a/	-my	.	.	8a/	-my	-mo	.	.	.	.
16AAA'</JJ	.	.	.	.	.	.	.	.	.	.	.	.	.	.	.	.	.	.	.	.	.
*	*Xrep	*	*	*	*	*	*	*	*	*	*	*	*	*	*	*	*	*	*	*	*
*	*rep	*	*	*	*	*	*	*	*	*	*	*	*	*	*	*	*	*	*	*	*
(<16AA/LL	(<8e-/L^< 8g 8cc	.	8r	.	.	.	8r	.	.	.	4r	.	.	.	4r	.	.	.	.	.	.
16GG/)	.	.	.	.	.	.	.	.	.	.	.	.	.	.	.	.	.	.	.	.	.
16AA'</	8d/J) 8f# 8a	.	8A\	nie	.	.	8A/	nie	sa-	.	.	.	.	.	.	.	.	.	.	.	.
16AAA'</JJ	.	.	.	.	.	.	.	.	.	.	.	.	.	.	.	.	.	.	.	.	.
*Xrep	*Xrep	*	*	*	*	*	*	*	*	*	*	*	*	*	*	*	*	*	*	*	*
=15	=15	=15	=15	=15	=15	=15	=15	=15	=15	=15	=15	=15	=15	=15	=15	=15	=15	=15	=15	=15	=15
*rep	*	*	*	*	*	*	*	*	*	*	*	*	*	*	*	*	*	*	*	*	*
(<16AA/LL	8en/L 8g 8cc#X	.	8C#X^>/	znaj-	.	.	8c#X\	znaj-	-re-	.	4r	.	.	.	4r	.	.	.	2ryy	.	.
16GG/)	.	.	.	.	.	.	.	.	.	.	.	.	.	.	.	.	.	.	.	.	.
16AA'</	8f#/ 8cc#	.	8E\	-my	.	.	8A/	-my	-mo	.	.	.	.	.	.	.	.	.	.	.	.
16AAA'</JJ	.	.	.	.	.	.	.	.	.	.	.	.	.	.	.	.	.	.	.	.	.
(<16AA/LL	8g/ 8b-X 8cc#	.	4r	.	.	.	4r	.	.	.	8r	.	.	.	8r	.	.	.	.	.	.
16GG/)	.	.	.	.	.	.	.	.	.	.	.	.	.	.	.	.	.	.	.	.	.
16AA'</	8f#/J 8a 8dd	.	.	.	.	.	.	.	.	.	8a/	nie	.	.	8a/	nie	spie-	.	.	.	.
16AAA'</JJ	.	.	.	.	.	.	.	.	.	.	.	.	.	.	.	.	.	.	.	.	.
*Xrep	*	*	*	*	*	*	*	*	*	*	*	*	*	*	*	*	*	*	*	*	*
=16	=16	=16	=16	=16	=16	=16	=16	=16	=16	=16	=16	=16	=16	=16	=16	=16	=16	=16	=16	=16	=16
*rep	*	*	*	*	*	*	*	*	*	*	*	*	*	*	*	*	*	*	*	*	*
(<16AA/LL	8a/L 8ccn 8dd#X	.	4r	.	.	.	4r	.	.	.	8d#X^>/	znaj-	.	.	8dd#X^>\	znaj-	-ta-	.	2ryy	.	.
16GG/)	.	.	.	.	.	.	.	.	.	.	.	.	.	.	.	.	.	.	.	.	.
16AA'</	8a/ 8cc#X 8ee	.	.	.	.	.	.	.	.	.	8a/	-my	.	.	8a/	-my	-ti	.	.	.	.
16AAA'</JJ	.	.	.	.	.	.	.	.	.	.	.	.	.	.	.	.	.	.	.	.	.
(<16AA/LL	8a/ 8ccn 8dd#	.	8r	.	.	.	8r	.	.	.	4r	.	.	.	4r	.	.	.	.	.	.
16GG/)	.	.	.	.	.	.	.	.	.	.	.	.	.	.	.	.	.	.	.	.	.
16AA'</	8a/J 8cc#X 8ee	.	8A\	li-	.	.	8A/	li-	spie-	.	.	.	.	.	.	.	.	.	.	.	.
16AAA'/JJ	.	.	.	.	.	.	.	.	.	.	.	.	.	.	.	.	.	.	.	.	.
*Xrep	*	*	*	*	*	*	*	*	*	*	*	*	*	*	*	*	*	*	*	*	*
!!LO:LB:g=original
=17	=17	=17	=17	=17	=17	=17	=17	=17	=17	=17	=17	=17	=17	=17	=17	=17	=17	=17	=17	=17	=17
!	!LO:TX:t=P:problem=dimineundolike accent	!	!	!	!	!	!	!	!	!	!	!	!	!	!	!	!	!	!	!	!
(<16AA/LL	(>8g#X^<\L (>8b 8ee	.	8E\	-toś-	.	.	8e\	-toś-	-ta-	.	4r	.	.	.	4r	.	.	.	2ryy	.	.
16GG/)	.	.	.	.	.	.	.	.	.	.	.	.	.	.	.	.	.	.	.	.	.
16AA'</	8a\) 8cc#) 8ee	.	8A\	-ci.	.	.	8A/	-ci	-ti	.	.	.	.	.	.	.	.	.	.	.	.
16AAA'</JJ	.	.	.	.	.	.	.	.	.	.	.	.	.	.	.	.	.	.	.	.	.
*rep	*	*	*	*	*	*	*	*	*	*	*	*	*	*	*	*	*	*	*	*	*
!	!LO:TX:t=P:problem=dimineundolike accent	!	!	!	!	!	!	!	!	!	!	!	!	!	!	!	!	!	!	!	!
(<16AA/LL	(<8b-X^<\ (>8dd-X 8ee	.	4r	.	.	.	4r	.	.	.	8r	.	.	.	8r	.	.	.	.	.	.
16GG/)	.	.	.	.	.	.	.	.	.	.	.	.	.	.	.	.	.	.	.	.	.
16AA'</	8a\J) 8ccn) 8ffn	.	.	.	.	.	.	.	.	.	8a/	li-	.	.	8a/	li-	spie-	.	.	.	.
16AAA'</JJ	.	.	.	.	.	.	.	.	.	.	.	.	.	.	.	.	.	.	.	.	.
*Xrep	*	*	*	*	*	*	*	*	*	*	*	*	*	*	*	*	*	*	*	*	*
=18	=18	=18	=18	=18	=18	=18	=18	=18	=18	=18	=18	=18	=18	=18	=18	=18	=18	=18	=18	=18	=18
*rep	*	*	*	*	*	*	*	*	*	*	*	*	*	*	*	*	*	*	*	*	*
!	!LO:TX:t=P:problem=dimineundolike accent	!	!	!	!	!	!	!	!	!	!	!	!	!	!	!	!	!	!	!	!
(<16AA/LL	(<8ccn^<\L (>8ee-X 8ffny	.	4r	.	.	.	4r	.	.	.	8fn^>/	-toś-	.	.	8ffn^>\	-toś-	-ta-	.	2ryy	.	.
16GG/)	.	.	.	.	.	.	.	.	.	.	.	.	.	.	.	.	.	.	.	.	.
16AA'</	8b\) 8ee-) 8ff#X	.	.	.	.	.	.	.	.	.	8a/	-ci.	.	.	8a/	-ci.	-ti.	.	.	.	.
16AAA'</JJ	.	.	.	.	.	.	.	.	.	.	.	.	.	.	.	.	.	.	.	.	.
!	!LO:TX:t=P:problem=dimineundolike accent	!	!	!	!	!	!	!	!	!	!	!	!	!	!	!	!	!	!	!	!
(<16AA/LL	(<8b^<\ (>8dd 8gg	.	8r	.	.	.	8r	.	.	.	8r	.	.	.	8r	.	.	.	.	.	.
16GG/)	.	.	.	.	.	.	.	.	.	.	.	.	.	.	.	.	.	.	.	.	.
16AA'</	8b-X\J) 8dd) 8gg#X	.	8Fn\	A	.	.	8d\	A	né	.	8fn/	A	.	.	8ffn\	A	Né	.	.	.	.
16AAA'</JJ	.	[[	.	.	.	.	.	.	.	.	.	.	.	.	.	.	.	.	.	.	.
*Xrep	*	*	*	*	*	*	*	*	*	*	*	*	*	*	*	*	*	*	*	*	*
=19	=19	=19	=19	=19	=19	=19	=19	=19	=19	=19	=19	=19	=19	=19	=19	=19	=19	=19	=19	=19	=19
*Xtremolo	*	*	*	*ij	*	*	*	*ij	*	*	*	*ij	*	*	*	*	*	*	*	*	*
!	!LO:TX:t=P:ff(ortissimo)=ff.:global:problem	!LO:DY:rj	!	!	!	!	!	!	!	!	!	!	!	!	!	!	!	!	!	!	!
8A/	8a\L 8cc# 8aa	ff	2Fn^>\	kie-	.	.	2fn^>\	kie-	sa-	.	2fn^>/	kie-	.	.	2ffn^>\	kie-	sa-	.	2ryy	.	.
16c#\LL	16a\L 16cc# 16aa	.	.	.	.	.	.	.	.	.	.	.	.	.	.	.	.	.	.	.	.
16c#\JJ	16a\JJ 16cc# 16aa	.	.	.	.	.	.	.	.	.	.	.	.	.	.	.	.	.	.	.	.
8c#\L	8a\L 8cc# 8aa	.	.	.	.	.	.	.	.	.	.	.	.	.	.	.	.	.	.	.	.
16c#\L	16a\L 16cc# 16aa	.	.	.	.	.	.	.	.	.	.	.	.	.	.	.	.	.	.	.	.
16c#\JJ	16a\JJ 16cc# 16aa	.	.	.	.	.	.	.	.	.	.	.	.	.	.	.	.	.	.	.	.
=20	=20	=20	=20	=20	=20	=20	=20	=20	=20	=20	=20	=20	=20	=20	=20	=20	=20	=20	=20	=20	=20
*	*rep	*	*	*	*	*	*	*	*	*	*	*	*	*	*	*	*	*	*	*	*
8c#\L	8a\L 8cc# 8aa	.	4..Fn\	-dy	.	.	4..f#\	-dy	-rii	.	4..fn/	-dy	.	.	4..ffn\	-dy	-rii	.	2ryy	.	.
16c#\L	16a\L 16cc# 16aa	.	.	.	.	.	.	.	.	.	.	.	.	.	.	.	.	.	.	.	.
16c#\JJ	16a\JJ 16cc# 16aa	.	.	.	.	.	.	.	.	.	.	.	.	.	.	.	.	.	.	.	.
8c#\L	8a\L 8cc# 8aa	.	.	.	.	.	.	.	.	.	.	.	.	.	.	.	.	.	.	.	.
16c#\L	16a\L 16cc# 16aa	.	.	.	.	.	.	.	.	.	.	.	.	.	.	.	.	.	.	.	.
16c#\JJ	16a\JJ 16cc# 16aa	.	16F\	już	.	.	16f#\	już	de'	.	16f/	już	.	.	16ff\	już	de'	.	.	.	.
*	*Xrep	*	*	*Xij	*	*	*	*Xij	*	*	*	*Xij	*	*	*	*	*	*	*	*	*
!!LO:PB:g=original
=21	=21	=21	=21	=21	=21	=21	=21	=21	=21	=21	=21	=21	=21	=21	=21	=21	=21	=21	=21	=21	=21
8c#\	8a\ 8cc# 8aa	.	2Fn^>\	ja-	.	.	2fn^>\	ja-	.	.	2fn^>/	ja-	ci-	.	2ffn^>\	ja-	.	.	2ryy	.	.
16A\LL	16a/LL	>	.	.	.	.	.	.	.	.	.	.	.	.	.	.	.	.	.	.	.
16A\JJ	16a/JJ	.	.	.	.	.	.	.	.	.	.	.	.	.	.	.	.	.	.	.	.
8A\	8a/	.	.	.	.	.	.	.	.	.	.	.	.	.	.	.	.	.	.	.	.
16A\LL	16a/LL	.	.	.	.	.	.	.	.	.	.	.	.	.	.	.	.	.	.	.	.
16A\JJ	16a/JJ	.	.	.	.	.	.	.	.	.	.	.	.	.	.	.	.	.	.	.	.
=22	=22	=22	=22	=22	=22	=22	=22	=22	=22	=22	=22	=22	=22	=22	=22	=22	=22	=22	=22	=22	=22
*	*	*	*	*ij	*	*	*	*ij	*	*	*	*ij	*	*	*	*	*	*	*	*	*
8A\	8a/	.	4..Fn\	-dła	.	.	4..Fn/	-dła	.	.	4..fn/	-dła	-bi in-	.	4..fn/	-dła	.	.	2ryy	.	.
16A\LL	16a/LL	.	.	.	.	.	.	.	.	.	.	.	.	.	.	.	.	.	.	.	.
16A\JJ	16a/JJ	.	.	.	.	.	.	.	.	.	.	.	.	.	.	.	.	.	.	.	.
8A\	8a/	.	.	.	.	.	.	.	.	.	.	.	.	.	.	.	.	.	.	.	.
*	*8va	*	*	*	*	*	*	*	*	*	*	*	*	*	*	*	*	*	*	*	*
16FFn'</LL 16Cn	16fffn'>\LL 16aaa	] p	.	.	.	.	.	.	.	.	.	.	.	.	.	.	.	.	.	.	.
16FF'</JJ 16C	16fff'>\JJ 16aaa	.	16F\	nie	.	.	16F/	nie	.	.	16f/	nie	-vo-	.	16f/	nie	.	.	.	.	.
=23	=23	=23	=23	=23	=23	=23	=23	=23	=23	=23	=23	=23	=23	=23	=23	=23	=23	=23	=23	=23	=23
*k[b-]	*k[b-]	*	*k[b-]	*	*	*	*k[b-]	*	*	*	*k[b-]	*	*	*	*k[b-]	*	*	*	*k[b-]	*	*
!	!	!	!	!	!	!LO:DY:a:rj	!	!	!	!LO:DY:rj	!	!	!	!LO:DY:a:rj	!	!	!	!LO:DY:a:rj	!	!	!
8FF'</ 8C	(>16fff\LL 16aaa	.	4F\	sta-	.	p	4A/	sta-	.	p	4c/	sta-	-la-	p	4f/	sta-	.	p	2ryy	.	.
.	16ccc\) 16fff	.	.	.	.	.	.	.	.	.	.	.	.	.	.	.	.	.	.	.	.
16A'>\LL 16c 16f	16ccc'>\ 16fff	.	.	.	.	.	.	.	.	.	.	.	.	.	.	.	.	.	.	.	.
16A'>\JJ 16c 16f	16ccc'>\JJ 16fff	.	.	.	.	.	.	.	.	.	.	.	.	.	.	.	.	.	.	.	.
8A'>\ 8c 8f	(>16ccc\LL 16fff	.	8F\	-nie,	.	.	8A/	-nie,	.	.	8c/	-nie,	-ti	.	8f/	-nie,	.	.	.	.	.
.	16aa\) 16ccc	.	.	.	.	.	.	.	.	.	.	.	.	.	.	.	.	.	.	.	.
16FF'</LL 16F	16aa'>\ 16ccc	.	8F\	szar-	.	.	8A/	szar-	.	.	8c/	szar-	le-	.	8f/	szar-	.	.	.	.	.
16FF'</JJ 16F	16ccc'>\JJ 16eee	.	.	.	.	.	.	.	.	.	.	.	.	.	.	.	.	.	.	.	.
=24	=24	=24	=24	=24	=24	=24	=24	=24	=24	=24	=24	=24	=24	=24	=24	=24	=24	=24	=24	=24	=24
8BBB-'</ 8BB-	(>16ccc\LL 16eee	.	4.BB-/	-paj-	.	.	4.B-\	-paj-	.	.	4.B-/	-paj-	-car-	.	4.f/	-paj-	.	.	2ryy	.	.
.	16bb-\) 16ddd	.	.	.	.	.	.	.	.	.	.	.	.	.	.	.	.	.	.	.	.
.	8qccc/ 8qeee	.	.	.	.	.	.	.	.	.	.	.	.	.	.	.	.	.	.	.	.
16F\LL 16B- 16f	16bb-'>\ 16ddd	.	.	.	.	.	.	.	.	.	.	.	.	.	.	.	.	.	.	.	.
16F\JJ 16B- 16f	16aa'>\JJ 16ccc#X	.	.	.	.	.	.	.	.	.	.	.	.	.	.	.	.	.	.	.	.
8F\ 8B- 8f	8bb-'>\ 8ddd	.	.	.	.	.	.	.	.	.	.	.	.	.	.	.	.	.	.	.	.
16EE'</LL 16E	16bb-'>\LL 16ggg	.	8D\	-my	.	.	8G/	-my	.	.	8B-/	-my	-ni	.	8e/	-my	.	.	.	.	.
16EE'</JJ 16E	16bb-'>\JJ 16ggg	.	.	.	.	.	.	.	.	.	.	.	.	.	.	.	.	.	.	.	.
!!LO:LB:g=original
=25	=25	=25	=25	=25	=25	=25	=25	=25	=25	=25	=25	=25	=25	=25	=25	=25	=25	=25	=25	=25	=25
8EE/ 8E	(>16bb-\LL 16ggg	.	4GG/	cia-	.	.	4D/	cia-	sue	.	4B-/	cia-	.	.	4e/	cia-	sue	.	2ryy	.	.
.	16bb-\) 16ddd	.	.	.	.	.	.	.	.	.	.	.	.	.	.	.	.	.	.	.	.
16G'>\LL 16B- 16e	16bb-'>\ 16ddd	.	.	.	.	.	.	.	.	.	.	.	.	.	.	.	.	.	.	.	.
16G'>\JJ 16B- 16e	16gg\JJ 16bb-	.	.	.	.	.	.	.	.	.	.	.	.	.	.	.	.	.	.	.	.
8G'\ 8B- 8e	(<16gg/LL 16bb-	.	8GG/	-ło	.	.	8D/	-ło	la-	.	8B-/	-ło-	.	.	8e/	-ło	la-	.	.	.	.
.	16ee/) 16gg	.	.	.	.	.	.	.	.	.	.	.	.	.	.	.	.	.	.	.	.
16E'</LL	16ee'</ 16gg	.	8GG/	na	.	.	8D/	na	-ce-	.	8B-/	-na	.	.	8e/	na	-ce-	.	.	.	.
*	*	*	*	*	*	*	*	*Xij	*	*	*	*Xij	*	*	*	*	*	*	*	*	*
16E'</JJ	16dd'</JJ 16gg 16bb-	.	.	.	.	.	.	.	.	.	.	.	.	.	.	.	.	.	.	.	.
=26	=26	=26	=26	=26	=26	=26	=26	=26	=26	=26	=26	=26	=26	=26	=26	=26	=26	=26	=26	=26	=26
*	*^	*	*	*	*	*	*	*	*	*	*	*	*	*	*	*	*	*	*	*	*
8AA'</	(<16bb-/LL	4cc#X\ 4gg	.	4AA/	sztu-	.	.	8C#X/L	sztu-	-ria-	.	8B-/	sztu-	ria-	.	4e/	sztu-	-ria-	.	2ryy	.	.
.	16aa/JJ)	.	.	.	.	.	.	.	.	.	.	.	.	.	.	.	.	.	.	.	.	.
.	8qbb-/	.	.	.	.	.	.	.	.	.	.	.	.	.	.	.	.	.	.	.	.	.
16c#X'>\LL 16e	16aa/LL	.	.	.	.	.	.	8E/J	.	.	.	8A/	-ki,	-mo	.	.	.	.	.	.	.	.
16c#'>\JJ 16e	16gg#X/JJ	.	.	.	.	.	.	.	.	.	.	.	.	.	.	.	.	.	.	.	.	.
8c#'>\ 8e	8aa/	4ryy	.	8AA/	-ki,	.	.	8A/	-ki,	-mo	.	4r	.	.	.	8a/	-ki,	-mo,	.	.	.	.
!	!	!	!LO:DY:rj	!LO:TX:t=P:pp(ianissimo)=pp.:global:problem	!	!	!LO:DY:a:rj	!LO:TX:t=P:pp(ianissimo)=pp.:global:problem	!	!	!LO:DY:a:rj	!	!	!	!	!LO:TX:t=P:pp(ianissimo)=pp.:global:problem	!	!	!LO:DY:a:rj	!	!	!
16DD'</LL 16AA	16aa'>\LL	.	pp	16D\	nie-	.	pp	16A/	nie-	L'os-	pp	.	.	.	.	16a/	nie-	L'os-	pp	.	.	.
16DD'</JJ 16AA	16aa'>\JJ	.	.	16D\	-chaj	.	.	16A/	-chaj	-sa a	.	.	.	.	.	16a/	-chaj	-sa a	.	.	.	.
*	*v	*v	*	*	*	*	*	*	*	*	*	*	*	*	*	*	*	*	*	*	*	*
=27	=27	=27	=27	=27	=27	=27	=27	=27	=27	=27	=27	=27	=27	=27	=27	=27	=27	=27	=27	=27	=27
8DD'</ 8AA	(>16aa\LL	.	4D^>\	na-	.	.	4A^>/	na-	nu-	.	8r	.	.	.	4a^</	na-	nu-	.	2ryy	.	.
.	16ddd\)	.	.	.	.	.	.	.	.	.	.	.	.	.	.	.	.	.	.	.	.
!	!	!	!	!	!	!	!	!	!	!	!	!	!	!LO:DY:a:t=forte.	!	!	!	!	!	!	!
16F'>\LL 16A 16d	16ddd'>\	.	.	.	.	.	.	.	.	.	16f/	nie-	L'os-	f	.	.	.	.	.	.	.
16F'>\JJ 16A 16d	16eee'>\JJ	.	.	.	.	.	.	.	.	.	16f/	-chaj	-sa a	.	.	.	.	.	.	.	.
8F'>\ 8A 8d	(>16eee\LL	.	8D\	-gie	.	.	8A/	-gie	-do	.	16f/	na-	nu-	.	8a/	-gie	-do	.	.	.	.
.	16fff\)	.	.	.	.	.	.	.	.	.	16f/	-gie	-do	.	.	.	.	.	.	.	.
16DD'</LL 16AA	16fff'>\	.	16D\	swie-	.	.	16A/	swie-	gli	.	16f/	swie-	gli	.	16a/	swie-	gli	.	.	.	.
!LO:TX:b:i:t=V&colon;S&colon;	!	!	!	!	!	!	!	!	!	!	!	!	!	!	!	!	!	!	!	!	!
16DD'</JJ 16AA	16aaa'>\JJ	.	16D\	-cą	.	.	16A/	-cą	sco-	.	16f/	-cą	sco-	.	16a/	-cą	sco	.	.	.	.
*	*	*	*	*Xij	*	*	*	*	*	*	*	*	*	*	*	*	*	*	*	*	*
!!LO:PB:g=original
=28	=28	=28	=28	=28	=28	=28	=28	=28	=28	=28	=28	=28	=28	=28	=28	=28	=28	=28	=28	=28	=28
*	*^	*	*	*	*	*	*	*	*	*	*	*	*	*	*	*	*	*	*	*	*
!	!	!	!	!	!	!	!	!	!	!	!	!LO:TX:t=P:problem=diminuendolike accent	!	!	!	!	!	!	!	!	!	!
8DD'</ 8AA	(>16aaa\LL	4ryy	.	4D^>\	koś-	.	.	4A/^<	koś-	-pria-	.	(<16g^>/LL	koś-	-pria-	.	4a^</	koś-	-pria-	.	2ryy	.	.
.	16eee\JJ)	.	.	.	.	.	.	.	.	.	.	16f/JJ)	.	.	.	.	.	.	.	.	.	.
16G'>\LL 16A 16c#X	16eee'>\LL	.	.	.	.	.	.	.	.	.	.	16e/	-ci,	-mo,	.	.	.	.	.	.	.	.
16G'>\JJ 16A 16c#	16aa'>\JJ	.	.	.	.	.	.	.	.	.	.	16e/	niech	sco-	.	.	.	.	.	.	.	.
*	*	*	*	*	*ij	*	*	*	*	*	*	*	*	*	*	*	*	*	*	*	*	*
!	!	!	!	!	!	!	!	!	!	!	!	!LO:TX:t=P:problem=diminuendolike accent	!	!	!	!	!	!	!	!	!	!
8G'\ 8A 8c#	8aa/L^^>	(>16aa\LL	.	8D\	-ci	.	.	8A/	-ci	-mo,	.	(<16g^>/LL	swie-	-pria-	.	8a/	-ci,	-mo	.	.	.	.
.	.	16ee\JJ)	.	.	.	.	.	.	.	.	.	16f/JJ)	.	.	.	.	.	.	.	.	.	.
16DD'</LL 16AA	16aa/L	16ee\LL	.	16D\	nie-	.	.	16A/	nie-	l'os-	.	16e/	-cą	-mo	.	16a/	nie-	l'os-	.	.	.	.
16DD'</JJ 16AA	16aa/JJ	16gg\JJ	.	16D\	-chaj	.	.	16A/	-chaj	-sa a	.	16e/	mu	le	.	16a/	-chaj	-sa a	.	.	.	.
*	*v	*v	*	*	*	*	*	*	*	*	*	*	*	*	*	*	*	*	*	*	*	*
=29	=29	=29	=29	=29	=29	=29	=29	=29	=29	=29	=29	=29	=29	=29	=29	=29	=29	=29	=29	=29	=29
8DD'</ 8AA	(>16aa\LL	.	4D^>\	na-	.	.	4A^/	na-	nu-	.	16f/	koś-	car-	.	4a^</	na-	nu-	.	2ryy	.	.
.	16ddd\)	.	.	.	.	.	.	.	.	.	16f/	-ci,	-ni	.	.	.	.	.	.	.	.
16F'>\LL 16A 16d	16ddd'>\	.	.	.	.	.	.	.	.	.	16f/	nie-	la-	.	.	.	.	.	.	.	.
16F'>\JJ 16A 16d	16eee'>\JJ	.	.	.	.	.	.	.	.	.	16f/	-chaj	-ce-	.	.	.	.	.	.	.	.
8F'>\ 8A 8d	(>16eee\LL	.	8D\	-gie	.	.	8A/	-gie	-do	.	16f/	na-	-ria-	.	8a/	-gie	-do	.	.	.	.
.	16fff\)	.	.	.	.	.	.	.	.	.	16f/	-gie	-mo,	.	.	.	.	.	.	.	.
16DD'</LL 16AA	16fff'>\	.	16AA/	swe-	.	.	16A/	swie-	gli	.	16f/	świe-	le	.	16a/	swie-	gli	.	.	.	.
16DD'</JJ 16AA	16aaa'>\JJ	.	16AA/	-cą	.	.	16A/	-cą	sco-	.	16f/	-cą	sue	.	16a/	-cą	sco-	.	.	.	.
=30	=30	=30	=30	=30	=30	=30	=30	=30	=30	=30	=30	=30	=30	=30	=30	=30	=30	=30	=30	=30	=30
8DD'</ 8AA	(>16aaa\LL	.	4AA^</	koś-	.	.	4A^</	koś-	-pria-	.	(<16g^>/LL	koś-	car-	.	4a^</	koś-	-pria-	.	2ryy	.	.
.	16eee\)	.	.	.	.	.	.	.	.	.	16f/JJ)	.	.	.	.	.	.	.	.	.	.
16A'>\LL 16c#X	16eee'>\	.	.	.	.	.	.	.	.	.	16e/	-ci,	-ni	.	.	.	.	.	.	.	.
16A'>\JJ 16c#	16aa'>\JJ	.	.	.	.	.	.	.	.	.	16e/	niech	sco-	.	.	.	.	.	.	.	.
8A'>\ 8c#	8aa/	.	8A\	-ci	.	.	8A/	-ci,	-mo.	.	8a/	swie-	-pria-	.	16a/	-ci,	-mo.	.	.	.	.
.	.	.	.	.	.	.	.	.	.	.	.	.	.	.	16r	.	.	.	.	.	.
!	!	!LO:DY:rj	!LO:TX:t=P:ff(ortissimo)=ff.:global:problem	!	!	!LO:DY:rj	!LO:TX:t=P:ff(ortissimo)=ff.:global:problem	!	!	!LO:DY:a:rj	!LO:TX:t=P:ff(ortissimo)=ff.:global:problem	!	!	!LO:DY:a:rj	!LO:TX:t=P:ff(ortissimo)=ff.:global:problem	!	!	!LO:DY:a:rj	!	!	!
16d\LL	16ff'>\LL 16ddd 16fff	ff	16d\	Kie-	.	ff	16d\	Kie-	Noi	ff	16a/	-cą	-mo	ff	8ff\	a	Lo	ff	.	.	.
16d\JJ	16ff'>\JJ 16ddd 16fff	.	16d\	-dy	.	.	16d\	-dy	i'a-	.	16a/	mu	gli	.	.	.	.	.	.	.	.
!!LO:LB:g=original
=31	=31	=31	=31	=31	=31	=31	=31	=31	=31	=31	=31	=31	=31	=31	=31	=31	=31	=31	=31	=31	=31
*	*	*	*	*Xij	*	*	*	*	*	*	*2\right	*	*	*	*	*	*	*	*	*	*
(>16d\LL	8ff\L 8ddd 8fff^^>	.	(>16d\LL	ja-	.	.	(>16d\LL	ja-	-re-	.	[>2dd\	koś-	l'os-	.	(>4.ff\	ja-	car-	.	2ryy	.	.
16c\)	.	.	16c\JJ)	.	.	.	16c\JJ)	.	.	.	.	.	.	.	.	.	.	.	.	.	.
*	*	*	*	*ij	*	*	*	*	*	*	*	*	*	*	*	*	*	*	*	*	*
16c'>\	16ff'>\L 16ddd 16fff	.	(>16c\LL	-dła	.	.	(>16c\LL	-dła	-mo	.	.	.	.	.	.	.	.	.	.	.	.
16B-'>\JJ	16ff'>\JJ 16ddd 16fff	.	16B-X\JJ)	.	.	.	16B-X\JJ)	.	.	.	.	.	.	.	.	.	.	.	.	.	.
(>16B-\LL	8ff\L 8ddd 8fff^^>	.	(16B-\LL	już	.	.	(>16B-\LL	już	pur	.	.	.	.	.	.	.	.	.	.	.	.
16A\)	.	.	16A\JJ)	.	.	.	16A\JJ)	.	.	.	.	.	.	.	.	.	.	.	.	.	.
16A'>\	16ee'>\L 16ddd 16eee	.	(>16A\LL	nie	.	.	(<16A/LL	nie	spie-	.	.	.	.	.	8ee\)	.	.	.	.	.	.
16G#X'>\JJ	16ee'>\JJ 16ddd 16eee	.	16G#X\JJ)	.	.	.	16G#X/JJ)	.	.	.	.	.	.	.	.	.	.	.	.	.	.
=32	=32	=32	=32	=32	=32	=32	=32	=32	=32	=32	=32	=32	=32	=32	=32	=32	=32	=32	=32	=32	=32
!!mixed beam:problem
!LO:TX:t=P:problem=mixedbeam	!	!	!	!	!	!	!	!	!	!	!	!	!	!	!	!	!	!	!	!	!
(>16G#X\LL	8ee\L 8ddd 8eee^^>	.	(>16G#X\LL	sta-	.	.	(<16G#X/LL	sta-	-ta-	.	16dd\]	.	.	.	8ee\	-dła,	-ni	.	2ryy	.	.
16A\)	.	.	16A\JJ)	.	.	.	16A/JJ)	.	.	.	16dd\	-ci,	-sa	.	.	.	.	.	.	.	.
16AA'</	16ee'>\L 16ccc#X 16eee	.	8A\	-nie,	.	.	8A/	-nie,	-ti	.	16cc#X\	kie-	la-	.	16ee\	kie-	la-	.	.	.	.
16AA'</JJ	16ee'>\JJ 16ccc# 16eee	.	.	.	.	.	.	.	.	.	16cc#\	-dy	-ce-	.	16ee\	-dy	-ce-	.	.	.	.
8A\	8ee\ 8ccc# 8eee	.	8r	.	.	.	8r	.	.	.	16cc#\	ja-	-ria-	.	16ee\	ja-	-ria-	.	.	.	.
.	.	.	.	.	.	.	.	.	.	.	16cc#\	-dła,	-mo	.	16ee\	-dła,	-mo	.	.	.	.
16cn'>\LL	16ee-X'</LL 16cccn 16eee-X	.	16cn\	Kie-	.	.	16cn\	Kie-	le	.	16ccn\	Kie-	le	.	16ee-X\	Kie-	le	.	.	.	.
16c'>\JJ	16ee-'</JJ 16ccc 16eee-	.	16c\	-dy	.	.	16c\	-dy	sue	.	16cc\	-dy	sue	.	16ee-\	-dy	sue	.	.	.	.
=33	=33	=33	=33	=33	=33	=33	=33	=33	=33	=33	=33	=33	=33	=33	=33	=33	=33	=33	=33	=33	=33
(>16c\LL	8ee-X/L 8ccc 8eee-X	.	(>16c\LL	ja-	.	.	(>16c\LL	ja-	car-	.	[>2cc\	ja-	car-	.	(>4.ee-X\	ja-	car-	.	2ryy	.	.
16B-\)	.	.	16B-X\JJ)	.	.	.	16B-\JJ)	.	.	.	.	.	.	.	.	.	.	.	.	.	.
16B-'>\	16ee-/L 16ccc 16eee-	.	(>16B-\LL	-dła	.	.	(>16B-\LL	-dła	-ni	.	.	.	.	.	.	.	.	.	.	.	.
16A-X'>\JJ	16ee-/JJ 16ccc 16eee-	.	16A\JJ)	.	.	.	16A-X\JJ)	.	.	.	.	.	.	.	.	.	.	.	.	.	.
(>16A-\LL	8ee-/L 8ccc 8eee-	.	(>16A\LL	już	.	.	(<16A-/LL	już	la-	.	.	.	.	.	.	.	.	.	.	.	.
16G\)	.	.	16G\JJ)	.	.	.	16G/JJ)	.	.	.	.	.	.	.	.	.	.	.	.	.	.
16G'>\	16dd/L 16ccc 16ddd	.	(>16G\LL	nie/	.	.	(<16G/LL	nie	-ce-	.	.	.	.	.	8dd\)	.	.	.	.	.	.
16F#X'>\JJ	16dd/JJ 16ccc 16ddd	.	16F#X\JJ)	.	.	.	16F#X/JJ)	.	.	.	.	.	.	.	.	.	.	.	.	.	.
!!LO:PB:g=original
=34	=34	=34	=34	=34	=34	=34	=34	=34	=34	=34	=34	=34	=34	=34	=34	=34	=34	=34	=34	=34	=34
*	*^	*	*	*	*	*	*	*	*	*	*	*	*	*	*	*	*	*	*	*	*
(>16F#X\LL	8dd/L 8ccc 8ddd	4.ryy	.	(>16F#X\LL	sta-	.	.	(<16F#X/LL	sta-	-ria-	.	16cc\]	.	.	.	8dd\	-dła	-ni	.	2ryy	.	.
16G\)	.	.	.	16G\JJ)	.	.	.	16G/JJ)	.	.	.	16cc\	-dła	-ni	.	.	.	.	.	.	.	.
16G'>\	16dd/L 16bb- 16ddd	.	.	8G\	-nie,	.	.	8G/	-nie,	-mo	.	16b-\	już	la-	.	16dd\	już	la-	.	.	.	.
16G'>\JJ	16dd/JJ 16bb- 16ddd	.	.	.	.	.	.	.	.	.	.	16b-\	nie	-ce-	.	16dd\	nie	-ce-	.	.	.	.
8G'>\	8dd/ 8bb- 8ddd	.	.	8r	.	.	.	8r	.	.	.	16b-\	sta-	-ria-	.	16dd\	sta-	-ria-	.	.	.	.
.	.	.	.	.	.	.	.	.	.	.	.	16b-\	-nie,	-mo!	.	16dd\	-nie,	-mo!	.	.	.	.
!LO:TX:a:t=|:problem	!	!	!LO:DY:rj:b=2	!	!	!	!	!	!	!	!	!	!	!	!	!	!	!	!	!	!	!
8BB-\ 8E 8B-	16ddd/LL	8dd\ 8gg	f	8B-\	szar-	.	.	8d\	szar-	Spie-	.	8g/	szar-	Spie-	.	8dd\	szar-	Spie-	.	.	.	.
.	16ddd/JJ	.	.	.	.	.	.	.	.	.	.	.	.	.	.	.	.	.	.	.	.	.
=35	=35	=35	=35	=35	=35	=35	=35	=35	=35	=35	=35	=35	=35	=35	=35	=35	=35	=35	=35	=35	=35	=35
*	*	*	*	*ij	*ij	*	*	*	*ij	*	*	*	*ij	*	*	*	*	*	*	*	*	*
!LO:TX:a:t=|:problem	!	!	!	!	!	!	!	!	!	!	!	!	!	!	!	!	!	!	!	!	!	!
8AA\L 8E 8A	(<16ddd/LL	8ee\L 8gg	.	8A\	-paj-	.	.	8e\	-paj-	-ta-	.	8g/	-paj-	-ta-	.	8cc#X\	-paj-	-ta-	.	2ryy	.	.
.	16ccc#X/)	.	.	.	.	.	.	.	.	.	.	.	.	.	.	.	.	.	.	.	.	.
!LO:TX:a:t=|:problem	!	!	!	!	!	!	!	!	!	!	!	!	!	!	!	!	!	!	!	!	!	!
8BB-\ 8E 8B-	16ddd'</	8dd\ 8gg	.	8B-\	-my	.	.	8e\	-my	-ti	.	8g/	-my	-ti	.	8dd\	-my	-ti	.	.	.	.
.	16ddd'</JJ	.	.	.	.	.	.	.	.	.	.	.	.	.	.	.	.	.	.	.	.	.
!LO:TX:a:t=|:problem	!	!	!	!	!	!	!	!	!	!	!	!	!	!	!	!	!	!	!	!	!	!
8AA\ 8E 8A	(<16ddd/LL	8ee\ 8gg	.	8A\	cia-	.	.	8e\	cia-	noi	.	8g/	cia-	noi	.	8cc#\	cia-	noi	.	.	.	.
.	16ccc#/)	.	.	.	.	.	.	.	.	.	.	.	.	.	.	.	.	.	.	.	.	.
!LO:TX:a:t=|:problem	!	!	!	!	!	!	!	!	!	!	!	!	!	!	!	!	!	!	!	!	!	!
8BB-\J 8E 8B-	16ddd'</	8dd\J 8gg	.	8B-\	-ło	.	.	8d\	-ło	sa-	.	8g/	-ło	sa-	.	8dd\	-ło	sa-	.	.	.	.
.	16ddd'</JJ	.	.	.	.	.	.	.	.	.	.	.	.	.	.	.	.	.	.	.	.	.
=36	=36	=36	=36	=36	=36	=36	=36	=36	=36	=36	=36	=36	=36	=36	=36	=36	=36	=36	=36	=36	=36	=36
!LO:TX:a:t=|:problem	!	!	!	!	!	!	!	!	!	!	!	!	!	!	!	!	!	!	!	!	!	!
8AA\ 8E 8A	16ccc#X/LL	8ee\ 8gg	.	4A\	w sztu-	.	.	4e\	w sztu-	-re-	.	4g/	w sztu-	-re-	.	4cc#X\	w sztu-	-re-	.	2ryy	.	.
.	16eee/	.	.	.	.	.	.	.	.	.	.	.	.	.	.	.	.	.	.	.	.	.
*	*X8va	*	*	*	*	*	*	*	*	*	*	*	*	*	*	*	*	*	*	*	*	*
!	!	!	!LO:HP:b=2	!	!	!	!	!	!	!	!	!	!	!	!	!	!	!	!	!	!	!
(>16A\LL	16aa/	8r	>	.	.	.	.	.	.	.	.	.	.	.	.	.	.	.	.	.	.	.
16c#X\JJ)	16ccc#X/JJ	.	.	.	.	.	.	.	.	.	.	.	.	.	.	.	.	.	.	.	.	.
8e\	8eee\	8re	]	8A\	-ki,	.	.	8e\	-ki,	-mo,	.	8g/	-ki,	-mo,	.	8ee\	-ki,	-mo,	.	.	.	.
!	!	!	!LO:DY:rj:b=2	!	!	!	!	!	!	!	!	!	!	!	!	!	!	!	!	!	!	!
8E-X'>\ 8e-X	16gg/LL	8g\ 8cc#	f	8cn\	szar-	.	.	8e-X\	szar-	noi	.	8g/	szar-	noi	.	8gg\	szar-	noi	.	.	.	.
.	16gg/JJ	.	.	.	.	.	.	.	.	.	.	.	.	.	.	.	.	.	.	.	.	.
=37	=37	=37	=37	=37	=37	=37	=37	=37	=37	=37	=37	=37	=37	=37	=37	=37	=37	=37	=37	=37	=37	=37
8D'>\L 8A 8d	(<16gg/LL	8a\L 8cc	.	8c\	-paj-	.	.	8d\	-paj-	pur	.	8a/	-paj-	pur	.	8ff#X\	-paj-	pur	.	2ryy	.	.
.	16ff#X/)	.	.	.	.	.	.	.	.	.	.	.	.	.	.	.	.	.	.	.	.	.
8E-X'>\J 8A 8e-X	16gg'</	8g\J 8cc	.	8c\	-my	.	.	8e-X\	-my	sa-	.	8g/	-my	sa-	.	8gg\	-my	sa-	.	.	.	.
.	16gg'</JJ	.	.	.	.	.	.	.	.	.	.	.	.	.	.	.	.	.	.	.	.	.
8D'>\L 8A 8d	(<16gg/LL	8a\L 8cc	.	8c\	cia-	.	.	8d\	cia-	-rem	.	8a/	cia-	-rem	.	8ff#\	cia-	-rem	.	.	.	.
.	16ff#/)	.	.	.	.	.	.	.	.	.	.	.	.	.	.	.	.	.	.	.	.	.
8E-'>\J 8A 8e-	16gg'</	8g\J 8cc	.	8c\	-ło	.	.	8e-\	-ło	spie-	.	8g/	-ło	spie-	.	8gg\	-ło	spie-	.	.	.	.
*	*	*	*	*	*Xij	*	*	*	*Xij	*	*	*	*Xij	*	*	*	*	*	*	*	*	*
.	16gg'</JJ	.	.	.	.	.	.	.	.	.	.	.	.	.	.	.	.	.	.	.	.	.
!!LO:LB:g=original
=38	=38	=38	=38	=38	=38	=38	=38	=38	=38	=38	=38	=38	=38	=38	=38	=38	=38	=38	=38	=38	=38	=38
8D'>\ 8A 8d	(<16gg/LL	8a\ 8cc	.	4D\	w sztu-	.	.	4d\	w sztu-	-ta-	.	4a^</	w sztu-	.	.	4ff#X\	w sztu-	-ta-	.	2ryy	.	.
.	16ff#X/)	.	.	.	.	.	.	.	.	.	.	.	.	.	.	.	.	.	.	.	.	.
8ryy	(<16ff#/	(>16f#X\LL	.	.	.	.	.	.	.	.	.	.	.	.	.	.	.	.	.	.	.	.
.	16aa/JJ	16a\JJ	.	.	.	.	.	.	.	.	.	.	.	.	.	.	.	.	.	.	.	.
*	*	*	*	*	*ij	*	*	*	*ij	*	*	*	*ij	*	*	*	*	*	*	*	*	*
8ryy	8ddd/)	8dd\)	.	8D\	-ki,	.	.	8d\	-ki,	-ti!	.	8d/	-ki,	.	.	8dd\	-ki,	-ti!	.	.	.	.
8F#X\ 8f#X	8dd\ 8aa 8ccc^^>	8ryy	.	8D\	niech	.	.	8d\	niech	e	.	8d/	niech	.	.	8dd\	niech	e	.	.	.	.
*	*v	*v	*	*	*	*	*	*	*	*	*	*	*	*	*	*	*	*	*	*	*	*
=39	=39	=39	=39	=39	=39	=39	=39	=39	=39	=39	=39	=39	=39	=39	=39	=39	=39	=39	=39	=39	=39
!!mixed beam:problem
!	!	!	!	!	!	!	!LO:TX:t=P:problem=mixedbeam	!	!	!	!	!	!	!	!	!	!	!	!	!	!
8G\L 8g\	8dd\L 8gg\ 8bb-^^>\	.	(>8G\L	na-	.	.	(>8G/L	na-	l'os-	.	(<8g/L	na-	.	.	(>8gg\L	na-	l'os-	.	2ryy	.	.
8D\ 8d\	8dd\ 8ff\ 8aa^^>\	.	8F\J)	.	.	.	8f\J)	.	.	.	8f/J)	.	.	.	8ff\J)	.	.	.	.	.	.
8E-X\ 8e-X\	8b-\ 8ee-X\ 8gg^^>\	.	8E-X\	-gie,	.	.	8e-X\	-gie,	-sa	.	8e-X/	-gie,	.	.	8ee-X\	-gie,	-sa	.	.	.	.
8BB-\J 8B-\	8b-\J 8dd\ 8ff^^>\	.	8D\	niech	.	.	8d\	niech	a	.	8d/	niech	.	.	8dd\	niech	a	.	.	.	.
=40	=40	=40	=40	=40	=40	=40	=40	=40	=40	=40	=40	=40	=40	=40	=40	=40	=40	=40	=40	=40	=40
!!mixed beam:problrem
8C\L 8c\	8g/L 8cc/ 8ee-X/^^>	.	(>8c\L	na-	.	.	(>8c\L	na-	nu-	.	(>8c/L	na-	.	.	8cc\L	na-	nu-	.	2ryy	.	.
8GG\ 8G\	8g/ 8b-/ 8dd/^^>	.	8B-\J)	.	.	.	8B-\J)	.	.	.	8b-\J)	.	.	.	8b-\J	.	.	.	.	.	.
!	!	!	!LO:ACC:color=gray	!	!	!	!LO:ACC:color=gray	!	!	!	!LO:ACC:color=gray	!	!	!	!LO:ACC:color=gray	!	!	!	!	!	!
8AA-X\ 8A-X\	8a-X/ 8cc/^^>	.	8A-X\	-gie	.	.	8A-X\	-gie	-do	.	8a-X\	-gie	.	.	8a-X/	-gie	-do	.	.	.	.
8EE-X\J 8E-X\	8g/J 8b-/^^>	.	8G\	mu,	.	.	8G\	mu,	sco-	.	8g\	mu,	.	.	8g/	mu,	sco-	.	.	.	.
=41	=41	=41	=41	=41	=41	=41	=41	=41	=41	=41	=41	=41	=41	=41	=41	=41	=41	=41	=41	=41	=41
*2\right	*	*	*	*	*	*	*	*	*	*	*	*	*	*	*	*	*	*	*	*	*
!LO:TX:b:i:t=V&colon;S&colon;	!LO:TX:t=P:fp=fp.:global:problem	!	!	!	!	!	!	!	!	!	!	!	!	!	!	!	!	!	!	!	!
2EEn^<\ 2En	2c#X^>/ 2g 2a	fp	8G^>\	swie-	.	.	8G^</	swie-	-pria-	.	8g^</	swie-	.	.	8g^</	swie-	-pria-	.	2ryy	.	.
.	.	.	16G\	-cą	.	.	16G/	-cą	-mo,	.	16g/	-cą	.	.	16g/	-cą	-mo,	.	.	.	.
.	.	.	16G\	niech	.	.	16G/	niech	le	.	16g/	niech	.	.	16g/	niech	le	.	.	.	.
.	.	.	16G\	na-	.	.	16G/	na-	car-	.	16g/	na-	.	.	16g/	na-	car-	.	.	.	.
.	.	.	16G\	-gie	.	.	16G/	-gie	-ni	.	16g/	-gie	.	.	16g/	-gie	-ni	.	.	.	.
.	.	.	16G\	swie-	.	.	16G/	swie-	la-	.	16g/	swie-	.	.	16g/	swie-	la-	.	.	.	.
.	.	.	16G\	-cą	.	.	16G/	-cą	-ce-	.	16g/	-cą	.	.	16g/	-cą	-ce	.	.	.	.
*	*	*	*	*Xij	*	*	*	*Xij	*	*	*	*Xij	*	*	*	*	*	*	*	*	*
!!LO:PB:g=original
=42	=42	=42	=42	=42	=42	=42	=42	=42	=42	=42	=42	=42	=42	=42	=42	=42	=42	=42	=42	=42	=42
2EE-X^<\ 2E-X	2G^>/ 2c 2g	.	8G^>\	koś-	.	.	8G^</	koś-	-ria-	.	8g^</	koś-	.	.	8g^</	koś-	.	.	2ryy	.	.
*	*	*	*	*ij	*	*	*	*ij	*	*	*	*ij	*	*	*	*	*	*	*	*	*
.	.	.	16G\	-ci,	.	.	16G/	-ci,	-mo	.	16g/	-ci,	.	.	16g/	-ci,	.	.	.	.	.
.	.	.	16G\	szar-	.	.	16G/	szar-	le	.	16g/	szar-	.	.	16g/	szar-	.	.	.	.	.
.	.	.	16G\	-paj-	.	.	16G/	-paj-	car-	.	16g/	-paj-	.	.	16g/	-paj-	.	.	.	.	.
.	.	.	16G\	-my	.	.	16G/	-my	-ni	.	16g/	-my	.	.	16g/	-my	.	.	.	.	.
.	.	.	16G\	bez-	.	.	16G/	bez-	la-	.	16g/	bez-	.	.	16g/	bez-	.	.	.	.	.
.	.	.	16G\	-li-	.	.	16G/	-li-	-ce-	.	16g/	-li-	.	.	16g/	-li-	.	.	.	.	.
=43	=43	=43	=43	=43	=43	=43	=43	=43	=43	=43	=43	=43	=43	=43	=43	=43	=43	=43	=43	=43	=43
2DD^<\ 2D	2G^>/ 2B- 2d 2g	.	8G^>\	-toś-	.	.	8G^</	-toś-	-ria-	.	8g^</	-toś-	.	.	8g^</	-toś-	.	.	2ryy	.	.
.	.	.	16G\	-ci,	.	.	16G/	-ci,	-mo,	.	16g/	-ci,	.	.	16g/	-ci,	.	.	.	.	.
.	.	.	16G\	gdy	.	.	16G/	gdy	noi	.	16g/	gdy	.	.	16g/	gdy	.	.	.	.	.
.	.	.	16G\	ja-	.	.	16G/	ja-	pur	.	16g/	ja-	.	.	16g/	ja-	.	.	.	.	.
.	.	.	16G\	-dła	.	.	16G/	-dła	sa-	.	16g/	-dła	.	.	16g/	-dła	.	.	.	.	.
.	.	.	16G\	już	.	.	16G/	już	-rem	.	16g/	już	.	.	16g/	już	.	.	.	.	.
.	.	.	16G\	nie	.	.	16G/	nie	spie-	.	16g/	nie	.	.	16g/	nie	.	.	.	.	.
=44	=44	=44	=44	=44	=44	=44	=44	=44	=44	=44	=44	=44	=44	=44	=44	=44	=44	=44	=44	=44	=44
4CC^</ 4C	4G^</ 4c 4e-X 4g	.	8G^>\	sta-	.	.	8G^</	sta-	-ta-	.	8g^</	sta-	.	.	8g^</	sta-	.	.	2ryy	.	.
.	.	.	16G\	-nie,	.	.	16G/	-nie,	-ti,	.	16g/	-nie,	.	.	16g/	-nie,	.	.	.	.	.
.	.	.	16G\	nie	.	.	16G/	nie	noi	.	16g/	nie	.	.	16g/	nie	.	.	.	.	.
4BBB-^</ 4BB-	4G^</ 4d 4g	.	16G\	zna-	.	.	16G/	zna-	pur	.	16g/	zna-	.	.	16g/	zna-	.	.	.	.	.
.	.	.	16G\	-łeś,	.	.	16G/	-łeś,	sa-	.	16g/	-łeś,	.	.	16g/	-łeś,	.	.	.	.	.
.	.	.	16B-\	o	.	.	16G/	o	-rem	.	16g/	o	.	.	16g/	o	.	.	.	.	.
.	.	.	16d\	nie	.	.	16G/	nie	spie-	.	16g/	nie	.	.	16g/	nie	.	.	.	.	.
*	*	*	*	*Xij	*	*	*	*Xij	*	*	*	*Xij	*	*	*	*	*	*	*	*	*
!!LO:LB:g=original
=45	=45	=45	=45	=45	=45	=45	=45	=45	=45	=45	=45	=45	=45	=45	=45	=45	=45	=45	=45	=45	=45
*tremolo	*tremolo	*	*	*	*	*	*	*	*	*	*	*	*	*	*	*	*	*	*	*	*
!	!LO:TX:t=P:global:problem=fff(ortissimo possibile)=fff.	!LO:DY:rj	!LO:TX:t=P:global:problem=fff(ortissimo possibile)=fff.	!	!	!LO:DY:a:rj	!LO:TX:t=P:global:problem=fff(ortissimo possibile)=fff.	!	!	!LO:DY:a:rj	!LO:TX:t=P:global:problem=fff(ortissimo possibile)=fff.	!	!	!LO:DY:a:rj	!LO:TX:t=P:global:problem=fff(ortissimo possibile)=fff.	!	!	!LO:DY:a:rj	!	!	!
32AAA/LLL	32ee\LLL 32gg 32bb-	fff	2c#X\	zna-	.	fff	2g\	zna-	-ta-	fff	2b-X\	zna-	.	fff	2gg\	zna-	.	fff	2ryy	.	.
32AA/	32cc#X\	.	.	.	.	.	.	.	.	.	.	.	.	.	.	.	.	.	.	.	.
32AAA/	32ee\ 32gg 32bb-	.	.	.	.	.	.	.	.	.	.	.	.	.	.	.	.	.	.	.	.
32AA/	32cc#X\	.	.	.	.	.	.	.	.	.	.	.	.	.	.	.	.	.	.	.	.
32AAA/	32ee\ 32gg 32bb-	.	.	.	.	.	.	.	.	.	.	.	.	.	.	.	.	.	.	.	.
32AA/	32cc#X\	.	.	.	.	.	.	.	.	.	.	.	.	.	.	.	.	.	.	.	.
32AAA/	32ee\ 32gg 32bb-	.	.	.	.	.	.	.	.	.	.	.	.	.	.	.	.	.	.	.	.
32AA/	32cc#X\	.	.	.	.	.	.	.	.	.	.	.	.	.	.	.	.	.	.	.	.
32AAA/	32ee\ 32gg 32bb-	.	.	.	.	.	.	.	.	.	.	.	.	.	.	.	.	.	.	.	.
32AA/	32cc#X\	.	.	.	.	.	.	.	.	.	.	.	.	.	.	.	.	.	.	.	.
32AAA/	32ee\ 32gg 32bb-	.	.	.	.	.	.	.	.	.	.	.	.	.	.	.	.	.	.	.	.
32AA/	32cc#X\	.	.	.	.	.	.	.	.	.	.	.	.	.	.	.	.	.	.	.	.
32AAA/	32ee\ 32gg 32bb-	.	.	.	.	.	.	.	.	.	.	.	.	.	.	.	.	.	.	.	.
32AA/	32cc#X\	.	.	.	.	.	.	.	.	.	.	.	.	.	.	.	.	.	.	.	.
32AAA/	32ee\ 32gg 32bb-	.	.	.	.	.	.	.	.	.	.	.	.	.	.	.	.	.	.	.	.
!	!LO:ACC:color=blue	!	!	!	!	!	!	!	!	!	!	!	!	!	!	!	!	!	!	!	!
32AA/JJJ	32cc#X\JJJ	.	.	.	.	.	.	.	.	.	.	.	.	.	.	.	.	.	.	.	.
=46	=46	=46	=46	=46	=46	=46	=46	=46	=46	=46	=46	=46	=46	=46	=46	=46	=46	=46	=46	=46	=46
*rep	*	*	*	*	*	*	*	*	*	*	*	*	*	*	*	*	*	*	*	*	*
!	!LO:ACC:color=blue	!	!	!	!	!	!	!	!	!	!	!	!	!	!	!	!	!	!	!	!
32AAA/LLL	32cc#X\LLL 32ee 32gg	.	4c#y\	-łeś	.	.	4e\	-łeś	-ti,	.	4g/	-łeś	.	.	4ee\	-łeś	.	.	2ryy	.	.
32AA/	32b-\	.	.	.	.	.	.	.	.	.	.	.	.	.	.	.	.	.	.	.	.
32AAA/	32cc#\ 32ee 32gg	.	.	.	.	.	.	.	.	.	.	.	.	.	.	.	.	.	.	.	.
32AA/	32b-\	.	.	.	.	.	.	.	.	.	.	.	.	.	.	.	.	.	.	.	.
32AAA/	32cc#\ 32ee 32gg	.	.	.	.	.	.	.	.	.	.	.	.	.	.	.	.	.	.	.	.
32AA/	32b-\	.	.	.	.	.	.	.	.	.	.	.	.	.	.	.	.	.	.	.	.
32AAA/	32cc#\ 32ee 32gg	.	.	.	.	.	.	.	.	.	.	.	.	.	.	.	.	.	.	.	.
32AA/	32b-\	.	.	.	.	.	.	.	.	.	.	.	.	.	.	.	.	.	.	.	.
!	!	!	!	!	!	!	!LO:ACC:color=red	!	!	!	!	!	!	!	!LO:ACC:color=red	!	!	!	!	!	!
32AAA/	32cc#\ 32ee 32gg	.	4c#\	li-	.	.	4c#X\	li-	al	.	4e/	li-	.	.	4cc#X\	li-	.	.	.	.	.
32AA/	32b-\	.	.	.	.	.	.	.	.	.	.	.	.	.	.	.	.	.	.	.	.
32AAA/	32cc#\ 32ee 32gg	.	.	.	.	.	.	.	.	.	.	.	.	.	.	.	.	.	.	.	.
32AA/	32b-\	.	.	.	.	.	.	.	.	.	.	.	.	.	.	.	.	.	.	.	.
32AAA/	32cc#\ 32ee 32gg	.	.	.	.	.	.	.	.	.	.	.	.	.	.	.	.	.	.	.	.
32AA/	32b-\	.	.	.	.	.	.	.	.	.	.	.	.	.	.	.	.	.	.	.	.
32AAA/	32cc#\ 32ee 32gg	.	.	.	.	.	.	.	.	.	.	.	.	.	.	.	.	.	.	.	.
32AA/JJJ	32b-\JJJ	.	.	.	.	.	.	.	.	.	.	.	.	.	.	.	.	.	.	.	.
*Xrep	*	*	*	*	*	*	*	*	*	*	*	*	*	*	*	*	*	*	*	*	*
=47	=47	=47	=47	=47	=47	=47	=47	=47	=47	=47	=47	=47	=47	=47	=47	=47	=47	=47	=47	=47	=47
*rep	*	*	*	*	*	*	*	*	*	*	*	*	*	*	*	*	*	*	*	*	*
!	!LO:ACC:color=blue	!	!	!	!	!	!	!	!	!	!	!	!	!	!	!	!	!	!	!	!
32AAA/LLL	32a\LLL 32cc#X 32ee	.	4A\	-toś-	.	.	4A/	-toś-	par	.	4a/	-toś-	.	.	4a/	-toś-	.	.	2ryy	.	.
32AA/	32a\ 32cc# 32ee	.	.	.	.	.	.	.	.	.	.	.	.	.	.	.	.	.	.	.	.
32AAA/	32a\ 32cc# 32ee	.	.	.	.	.	.	.	.	.	.	.	.	.	.	.	.	.	.	.	.
32AA/	32a\ 32cc# 32ee	.	.	.	.	.	.	.	.	.	.	.	.	.	.	.	.	.	.	.	.
32AAA/	32a\ 32cc# 32ee	.	.	.	.	.	.	.	.	.	.	.	.	.	.	.	.	.	.	.	.
32AA/	32a\ 32cc# 32ee	.	.	.	.	.	.	.	.	.	.	.	.	.	.	.	.	.	.	.	.
32AAA/	32a\ 32cc# 32ee	.	.	.	.	.	.	.	.	.	.	.	.	.	.	.	.	.	.	.	.
32AA/	32a\JJJ 32cc# 32ee	.	.	.	.	.	.	.	.	.	.	.	.	.	.	.	.	.	.	.	.
32AAA/	32e/LLL 32a 32cc#	.	4G\	-ci	.	.	4G/	-ci	al	.	4g/	-ci	.	.	4g/	-ci	.	.	.	.	.
32AA/	32e/ 32a 32cc#	.	.	.	.	.	.	.	.	.	.	.	.	.	.	.	.	.	.	.	.
32AAA/	32e/ 32a 32cc#	.	.	.	.	.	.	.	.	.	.	.	.	.	.	.	.	.	.	.	.
32AA/	32e/ 32a 32cc#	.	.	.	.	.	.	.	.	.	.	.	.	.	.	.	.	.	.	.	.
32AAA/	32e/ 32a 32cc#	.	.	.	.	.	.	.	.	.	.	.	.	.	.	.	.	.	.	.	.
32AA/	32e/ 32a 32cc#	.	.	.	.	.	.	.	.	.	.	.	.	.	.	.	.	.	.	.	.
32AAA/	32e/ 32a 32cc#	.	.	.	.	.	.	.	.	.	.	.	.	.	.	.	.	.	.	.	.
32AA/JJJ	32e/JJJ 32a 32cc#	.	.	.	.	.	.	.	.	.	.	.	.	.	.	.	.	.	.	.	.
*Xrep	*	*	*	*	*	*	*	*	*	*	*	*	*	*	*	*	*	*	*	*	*
*Xtremolo	*Xtremolo	*	*	*	*	*	*	*	*	*	*	*	*	*	*	*	*	*	*	*	*
=48	=48	=48	=48	=48	=48	=48	=48	=48	=48	=48	=48	=48	=48	=48	=48	=48	=48	=48	=48	=48	=48
8AAA/	8a/	.	(>4E\	pa-	.	.	(<4E/	pa-	par	.	(<4e/	pa-	.	.	(<4e/	pa-	.	.	2ryy	.	.
!	!LO:ACC:color=blue	!	!	!	!	!	!	!	!	!	!	!	!	!	!	!	!	!	!	!	!
16A\LL 16e	16a\LL 16cc#X 16ee 16aa	.	.	.	.	.	.	.	.	.	.	.	.	.	.	.	.	.	.	.	.
16A\JJ 16e	16a\JJ 16cc# 16ee 16aa	.	.	.	.	.	.	.	.	.	.	.	.	.	.	.	.	.	.	.	.
8A\L 8e	8a\L 8cc# 8ee 8aa	.	4A\)	.	.	.	4A/)	.	di	.	4a/)	.	.	.	4a/)	.	.	.	.	.	.
8A\J 8e	8a\J 8cc# 8ee 8aa	.	.	.	.	.	.	.	.	.	.	.	.	.	.	.	.	.	.	.	.
=49	=49	=49	=49	=49	=49	=49	=49	=49	=49	=49	=49	=49	=49	=49	=49	=49	=49	=49	=49	=49	=49
!	!LO:TX:a:t=|:problem	!	!	!	!	!	!	!	!	!	!	!	!	!	!	!	!	!	!	!	!
8d\ 8f	8a\ 8dd 8ff	.	8D\	-nie.	.	.	8D/	-nie!	te!	.	8d/	-nie!	.	.	8d/	-nie!	.	.	2ryy	.	.
8FF/L 8F	8a/L 8dd	.	16d\	Kie-	L'os-	.	8r	.	.	.	8r	.	.	.	8r	.	.	.	.	.	.
.	.	.	16d\	-dy	-sa a	.	.	.	.	.	.	.	.	.	.	.	.	.	.	.	.
8EE/ 8E	8g/ 8cc#X	.	16c#X\	ja-	mu-	.	4r	.	.	.	4r	.	.	.	4r	.	.	.	.	.	.
.	.	.	16c#\	-dła	-do	.	.	.	.	.	.	.	.	.	.	.	.	.	.	.	.
8DD/J 8D	8f#X/J 8ccn	.	16cn\	już	gli	.	.	.	.	.	.	.	.	.	.	.	.	.	.	.	.
.	.	.	16c\	nie	sco-	.	.	.	.	.	.	.	.	.	.	.	.	.	.	.	.
!!LO:PB:g=original
=50	=50	=50	=50	=50	=50	=50	=50	=50	=50	=50	=50	=50	=50	=50	=50	=50	=50	=50	=50	=50	=50
!	!	!	!	!	!	!	!	!	!	!	!LO:TX:t=P:problem=na pięciolinii widnieją zapiski ołówkiem	!	!	!	!	!	!	!	!	!	!
8CC#X/L 8C#X	8e#X/L 8bn	.	8Bn\	sta-	-pria-	.	8r	.	.	.	2r	.	.	.	2r	.	.	.	2ryy	.	.
8CCn/ 8Cn	8en/ 8a#X 8ee	.	8A#X\	-nie,	-mo,	.	16e\	szar-	le	.	.	.	.	.	.	.	.	.	.	.	.
.	.	.	.	.	.	.	16e\	-pmy	sue	.	.	.	.	.	.	.	.	.	.	.	.
8BBBn/ 8BBn	8f#X/ 8bn 8dd#X	.	8B\	szar-	le	.	16d#X\	cia-	car-	.	.	.	.	.	.	.	.	.	.	.	.
.	.	.	.	.	.	.	16d#\	-ło	-ni	.	.	.	.	.	.	.	.	.	.	.	.
8BBB-X/J 8BB-X	8dn/J 8g#X 8ddn	.	8G#X\	-pmy	sue	.	16dn\	bez	la-	.	.	.	.	.	.	.	.	.	.	.	.
.	.	.	.	.	.	.	16d\	li-	-ce-	.	.	.	.	.	.	.	.	.	.	.	.
=51	=51	=51	=51	=51	=51	=51	=51	=51	=51	=51	=51	=51	=51	=51	=51	=51	=51	=51	=51	=51	=51
8AAA/ 8AA	8e/ 8a 8cc#X	.	8A\	cia-	os-	.	8c#X\	-toś-	-ria-	.	8r	.	.	.	8r	.	.	.	2ryy	.	.
8FF/L 8F	8a\L 8ccn 8aa	.	8A\	-ło,	-sa a	.	16A/	-ci,	-mo	.	16a/	nie-	.	.	16a/	nie-	l'os-	.	.	.	.
.	.	.	.	.	.	.	16A/	niech	si	.	16a/	-chaj	.	.	16a/	-chaj	-sa a	.	.	.	.
*	*	*	*	*	*	*	*	*	*	*	*	*ij	*	*	*	*	*	*	*	*	*
8EE/ 8E	8b-\ 8dd 8gg#X	.	8B-\	nie-	nu-	.	8Bn/	swie-	la-	.	16a/	na-	.	.	16b-/	na-	nu-	.	.	.	.
.	.	.	.	.	.	.	.	.	.	.	16a/	-gie	.	.	16b-/	-gie	-do	.	.	.	.
8AA/J	8cc#X\J 8ee 8ggn	.	8c#X\	-chaj	-do	.	8c#/	-cą	-ce-	.	16a/	swie-	.	.	16cc#X\	swie-	gli	.	.	.	.
.	.	.	.	.	.	.	.	.	.	.	16a/	-cą	.	.	16cc#\	-cą	sco-	.	.	.	.
=52	=52	=52	=52	=52	=52	=52	=52	=52	=52	=52	=52	=52	=52	=52	=52	=52	=52	=52	=52	=52	=52
8DD/L 8D	8dd\L 8ff#X	.	8d\	swie-	gli	.	(>4.d\	kos-	-ria-	.	(<8a/	koś-	.	.	(>8dd\L	koś-	-pria-	.	2ryy	.	.
8BBB-/ 8BB-	8b-X\ 8dd 8ffn	.	8B-\	-cą	sco-	.	.	.	.	.	4b-X/	.	.	.	8ff\J	.	.	.	.	.	.
8GGG/ 8GG	8b-\ 8dd 8ee	.	(>8G\L	Koś-	-pria-	.	.	.	.	.	.	.	.	.	4ee\)	.	.	.	.	.	.
8AAA/J 8AA	8a\J 8cc#X 8ee	.	8A\J)	.	.	.	8c#X\)	.	.	.	8a/)	.	.	.	.	.	.	.	.	.	.
=53	=53	=53	=53	=53	=53	=53	=53	=53	=53	=53	=53	=53	=53	=53	=53	=53	=53	=53	=53	=53	=53
8BBB-/ 8BB-	8f/ 8dd	.	8B-\	-ci.	-mo.	.	8d\	-ci	-mo	.	8f/	-ci.	.	.	8dd\	-ci.	-mo,	.	2ryy	.	.
8FF/L 8F	8a/L 8dd	.	16d\	Kie-	E	.	16f\	Kie-	.	.	16a/	Kie-	.	.	16dd\	Kie-	e	.	.	.	.
.	.	.	16d\	-dy	qua-	.	16f\	-dy	.	.	16a/	-dy	.	.	16dd\	-dy	qual-	.	.	.	.
*	*	*	*	*ij	*	*	*	*ij	*	*	*	*	*	*	*	*	*	*	*	*	*
8EE/ 8E	8g/ 8cc#X	.	16c#X\	ja-	-lun-	.	16e\	ja-	.	.	16g/	ja-	.	.	16cc#X\	ja-	-lun-	.	.	.	.
.	.	.	16c#\	-dła	-que	.	16e\	-dła	.	.	16g/	-dła	.	.	16cc#\	-dła	-gue	.	.	.	.
8DD#X/J 8D#X	8f#X/J 8ccn	.	16cn\	już	ci-	.	16e-X\	już	.	.	16f#X/	już	.	.	16ccn\	już	ci-	.	.	.	.
.	.	.	16c\	nie	-bo a-	.	16e-\	nie	.	.	16f#/	nie	.	.	16cc\	nie	-bo a-	.	.	.	.
*	*	*	*	*Xij	*	*	*	*Xij	*	*	*	*Xij	*	*	*	*	*	*	*	*	*
!!LO:LB:g=original
=54	=54	=54	=54	=54	=54	=54	=54	=54	=54	=54	=54	=54	=54	=54	=54	=54	=54	=54	=54	=54	=54
!	!	!	!	!	!	!	!	!	!	!	!	!	!	!	!LO:ACC:color=gray	!	!	!	!	!	!
8DDn/L 8Dn	8e#X/L 8bn	.	16Bn\	sta-	.	.	16d\	sta-	doch-	.	16f/	sta-	.	.	16bn\	sta-	-doc-	.	2ryy	.	.
*	*	*	*	*ij	*	*	*	*ij	*	*	*	*ij	*	*	*	*	*	*	*	*	*
.	.	.	16B\	-nie,	.	.	16d\	-nie,	-chi	.	16f/	-nie,	.	.	16b\	-nie,	-chi	.	.	.	.
8CCn/ 8Cn	8en/ 8a#X 8ee	.	16A#X\	szar-	.	.	16e\	szar-	da	.	16e/	szar-	.	.	16ee\	szar-	da	.	.	.	.
.	.	.	16A#\	-pmy	.	.	16e\	-pmy	noi	.	16e/	-pmy	.	.	16ee\	-pmy	noi	.	.	.	.
8BBBn/ 8BBn	8f#X/ 8bn 8dd#X	.	16B\	cia-	.	.	16Bn\	cia-	tos-	.	16f#X/	cia-	.	.	16dd#X\	cia-	tos-	.	.	.	.
.	.	.	16B\	-ło	.	.	16B\	-ło	-to	.	16f#/	-ło	.	.	16dd#\	-ło	-te	.	.	.	.
8BBB-X/J 8BB-X	8dn/J 8g#X 8ddn	.	16G#X\	bez	.	.	16d\	bez	s'ag-	.	16e/	bez	.	.	16ddn\	bez	s'ag -	.	.	.	.
.	.	.	16G#\	li-	.	.	16d\	li-	-gher-	.	16e/	li-	.	.	16dd\	li-	-gher-	.	.	.	.
=55	=55	=55	=55	=55	=55	=55	=55	=55	=55	=55	=55	=55	=55	=55	=55	=55	=55	=55	=55	=55	=55
8AAA/ 8AA	8e/ 8a 8cc#X	.	8A\	-toś-	mi-	.	16A/	-toś-	-mi-	.	16e/	-toś-	mi-	.	8cc#X\	-toś-	-mi-	.	2ryy	.	.
*	*	*	*	*Xij	*	*	*	*	*	*	*	*Xij	*	*	*	*	*	*	*	*	*
.	.	.	.	.	.	.	16A/	-ci,	-gli	.	16a/	-ci,	-gli	.	.	.	.	.	.	.	.
8FFF/L 8FF	8a\L 8dd 8aa	.	8F\	-ci,	-gli	.	16d\	nie-	da	.	16a/	nie-	da	.	16dd\	-ci,	-gli	.	.	.	.
.	.	.	.	.	.	.	16d\	-chaj	noi	.	16a/	-chaj	noi	.	16dd\	niech	gli	.	.	.	.
*	*	*	*	*	*	*	*	*Xij	*	*	*	*	*	*	*	*	*	*	*	*	*
8EEE/ 8EE	8bn\ 8dd 8gg#X	.	8E\	nie-	da	.	8d^>\	swie-	to-	.	16g#X/	na-	to-	.	8bn\	swie-	sag-	.	.	.	.
.	.	.	.	.	.	.	.	.	.	.	16g#/	-gie	-sto	.	.	.	.	.	.	.	.
8AAA/J 8AA	8cc#\J 8ee 8ggn	.	8A\	-chaj	noi	.	16e\	-cą,	-sto	.	16gn/	swie-	s'ag-	.	8cc#\	-cą	-gher-	.	.	.	.
.	.	.	.	.	.	.	16e\	niech	si	.	16g/	-cą	-gher-	.	.	.	.	.	.	.	.
=56	=56	=56	=56	=56	=56	=56	=56	=56	=56	=56	=56	=56	=56	=56	=56	=56	=56	=56	=56	=56	=56
8DD/L 8D	8dd\L 8ff#X	.	8d\	swie-	s'ag-	.	8d\	swie-	s'ag-	.	(<8f#X/L	koś-	-mi-	.	(>8dd\L	koś-	-mi-	.	2ryy	.	.
8FF/ 8F	8a\ 8dd 8ffn	.	8F\	-cą	-gher-	.	8d\	-cą	-gher-	.	8fn/	.	.	.	8aa\J	.	.	.	.	.	.
8AA/J 8A	8a\J 8cc#X 8ee	.	4A\	koś-	-mi	.	(>8c#X\L	koś-	-mi-	.	8e/	.	.	.	8gg\L	.	.	.	.	.	.
!	!	!LO:DY:rj	!	!	!	!	!	!	!	!	!	!	!	!	!	!	!	!	!	!	!
16DD/LL 16AA 16D	16dd\LL 16ff 16ddd	ff	.	.	.	.	8d\J)	.	.	.	8d/J)	.	.	.	16ff\L	.	.	.	.	.	.
16DD/JJ 16AA 16D	16dd\JJ 16ff 16ddd	.	.	.	.	.	.	.	.	.	.	.	.	.	16dd\JJ)	.	.	.	.	.	.
!!LO:PB:g=original
=57	=57	=57	=57	=57	=57	=57	=57	=57	=57	=57	=57	=57	=57	=57	=57	=57	=57	=57	=57	=57	=57
8DD'</ 8AA 8D	(>16dd\LL 16ff 16ddd	.	4D\	-ci	.	.	4d\	-ci.	-gli	.	4d/	-ci.	.	.	4dd\	-ci.	-gli.	.	2ryy	.	.
.	16aa\)	.	.	.	.	.	.	.	.	.	.	.	.	.	.	.	.	.	.	.	.
16F'>\LL 16A 16d	16ff'>\ 16aa	.	.	.	.	.	.	.	.	.	.	.	.	.	.	.	.	.	.	.	.
16F'>\JJ 16A 16d	16ff'>\JJ 16aa	.	.	.	.	.	.	.	.	.	.	.	.	.	.	.	.	.	.	.	.
8F'>\ 8A 8d	(>16ff\LL 16aa	.	8r	.	.	.	8r	.	.	.	8r	.	.	.	8r	.	.	.	.	.	.
.	16dd\) 16ff	.	.	.	.	.	.	.	.	.	.	.	.	.	.	.	.	.	.	.	.
16DD'</LL 16AA 16D	16dd'>\ 16ff	.	16d\	So-	.	.	16f\	So-	.	.	16a/	So-	.	.	16ff\	So-	Chi	.	.	.	.
16DD'</JJ 16AA 16D	16dd'>\JJ 16ff	.	16d\	-wy,	.	.	16f\	-wy,	.	.	16a/	-wy	.	.	16ff\	-wy,	spar-	.	.	.	.
=58	=58	=58	=58	=58	=58	=58	=58	=58	=58	=58	=58	=58	=58	=58	=58	=58	=58	=58	=58	=58	=58
*rep	*	*	*	*ij	*	*	*	*ij	*	*	*	*ij	*	*	*	*	*	*	*	*	*
8DD'/ 8AA 8D	(>16dd\LL 16ff	.	4d\	kru-	.	.	4f\	kru-	.	.	4a/	kru-	.	.	4ff\	kru-	-vie-	.	2ryy	.	.
.	16a\)	.	.	.	.	.	.	.	.	.	.	.	.	.	.	.	.	.	.	.	.
16F'\LL 16A 16d	16dd'>\ 16ff	.	.	.	.	.	.	.	.	.	.	.	.	.	.	.	.	.	.	.	.
16F'\JJ 16A 16d	16ee'>\JJ 16gg	.	.	.	.	.	.	.	.	.	.	.	.	.	.	.	.	.	.	.	.
8F'\ 8A 8d	8ff'\ 8aa	.	8D/	-ki,	.	.	8A/	-ki,	.	.	8f/	-ki,	.	.	8dd\	-ki,	-ri,	.	.	.	.
16DD'/LL 16AA 16D	16a'>\LL 16ff 16aa	.	16d\	so-	.	.	16f\	so-	.	.	16a/	so-	.	.	16ff\	so-	gu-	.	.	.	.
16DD'/JJ 16AA 16D	16a'>\JJ 16ff 16aa	.	16d\	-wy	.	.	16f\	-wy,	.	.	16a/	-wy,	.	.	16ff\	-wy,	-fi e	.	.	.	.
*Xrep	*	*	*	*	*	*	*	*	*	*	*	*	*	*	*	*	*	*	*	*	*
=59	=59	=59	=59	=59	=59	=59	=59	=59	=59	=59	=59	=59	=59	=59	=59	=59	=59	=59	=59	=59	=59
*rep	*	*	*	*	*	*	*	*	*	*	*	*	*	*	*	*	*	*	*	*	*
8DD'/ 8AA 8D	(>16a\LL 16ff 16aa	.	4d\	kru-	.	.	4f\	kru-	.	.	4a/	kru-	.	.	4ff\	kru-	cor-	.	2ryy	.	.
.	16dd\) 16ff	.	.	.	.	.	.	.	.	.	.	.	.	.	.	.	.	.	.	.	.
16F'\LL 16A 16d	16dd'>\ 16ff	.	.	.	.	.	.	.	.	.	.	.	.	.	.	.	.	.	.	.	.
16F'\JJ 16A 16d	16dd'>\JJ 16ff	.	.	.	.	.	.	.	.	.	.	.	.	.	.	.	.	.	.	.	.
8F'\ 8A 8d	(<16a/LL 16ff	.	8D/	-ki	.	.	8A/	-ki	.	.	8f/	-ki	.	.	8dd\	-ki	-vi!	.	.	.	.
.	16f/) 16dd	.	.	.	.	.	.	.	.	.	.	.	.	.	.	.	.	.	.	.	.
16DD'/LL 16AA 16D	16f'</ 16dd	.	16d\	i	.	.	16f\	i	.	.	16a/	i	.	.	16ff\	i	su	.	.	.	.
16DD'/JJ 16AA 16D	16f'</JJ 16dd	.	16d\	pu-	.	.	16f\	pu-	.	.	16a/	pu-	.	.	16ff\	pu-	vo-	.	.	.	.
*Xrep	*	*	*	*Xij	*	*	*	*Xij	*	*	*	*Xij	*	*	*	*	*	*	*	*	*
!!LO:LB:g=original
=60	=60	=60	=60	=60	=60	=60	=60	=60	=60	=60	=60	=60	=60	=60	=60	=60	=60	=60	=60	=60	=60
8DD'</ 8AA 8D	(<16f/LL 16dd	.	4d\	-ha-	.	.	4f\	-ha-	.	.	4a/	-ha-	.	.	4ff\	-ha-	-la-	.	2ryy	.	.
.	16a/	.	.	.	.	.	.	.	.	.	.	.	.	.	.	.	.	.	.	.	.
16F'>\LL 16A 16d	16dd/	.	.	.	.	.	.	.	.	.	.	.	.	.	.	.	.	.	.	.	.
16F'>\JJ 16A 16d	16ee/JJ	.	.	.	.	.	.	.	.	.	.	.	.	.	.	.	.	.	.	.	.
*	*	*	*	*ij	*	*	*	*ij	*	*	*	*ij	*	*	*	*	*	*	*	*	*
8F'>\ 8A 8d	8ff\)	.	8D/	-cze!	.	.	8A/	-cze!	.	.	8f/	-cze!	.	.	8dd\	-cze!	-te ad	.	.	.	.
!	!LO:TX:b:t=|:problem	!	!	!	!	!	!	!	!	!	!	!	!	!	!	!	!	!	!	!	!
8FF/ 8AA 8F	8a/ 8dd	.	16F\	dar-	.	.	16d\	dar-	.	.	16a/	dar-	.	.	16dd\	dar-	in-	.	.	.	.
.	.	.	16F\	-mo	.	.	16d\	-mo	.	.	16a/	-mo	.	.	16dd\	-mo	-tiap-	.	.	.	.
=61	=61	=61	=61	=61	=61	=61	=61	=61	=61	=61	=61	=61	=61	=61	=61	=61	=61	=61	=61	=61	=61
!	!LO:TX:a:t=|:problem	!	!	!	!	!	!	!	!	!	!	!	!	!	!	!	!	!	!	!	!
8DD/L 8AA 8D	8a\L 8ff	.	8D\	że-	.	.	8d\	że-	.	.	8a/	że-	.	.	8ff\	że-	-por-	.	2ryy	.	.
!	!LO:TX:a:t=|:problem	!	!	!	!	!	!	!	!	!	!	!	!	!	!	!	!	!	!	!	!
8FF/ 8AA 8F	8a\ 8dd	.	8F\	-brze	.	.	8d\	-brze	.	.	8a/	-brze	.	.	8dd\	-brze	-vi.	.	.	.	.
!	!LO:TX:a:t=|:problem	!	!	!	!	!	!	!	!	!	!	!	!	!	!	!	!	!	!	!	!
8DD/ 8AA 8D	8a\ 8ff	.	8D\	dar-	.	.	8d\	dar-	.	.	8a/	dar-	.	.	8ff\	dar-	Va-	.	.	.	.
!	!LO:TX:a:t=|:problem	!	!	!	!	!	!	!	!	!	!	!	!	!	!	!	!	!	!	!	!
8FF/J 8AA 8F	8a\J 8dd	.	8F\	-mo	.	.	8d\	-mo	.	.	8a/	-mo	.	.	8dd\	-mo	-na	.	.	.	.
=62	=62	=62	=62	=62	=62	=62	=62	=62	=62	=62	=62	=62	=62	=62	=62	=62	=62	=62	=62	=62	=62
8DD/ 8AA 8D	(<16a/LL 16ff	.	4D\	pła-	.	.	4d\	pła-	.	.	4a/	pła-	.	.	4ff\	pła-	si-	.	2ryy	.	.
.	16dd/)	.	.	.	.	.	.	.	.	.	.	.	.	.	.	.	.	.	.	.	.
16F'>\LL 16A 16d	(<16dd/	.	.	.	.	.	.	.	.	.	.	.	.	.	.	.	.	.	.	.	.
16F'>\JJ 16A 16d	16ee/JJ)	.	.	.	.	.	.	.	.	.	.	.	.	.	.	.	.	.	.	.	.
8F'>\ 8A 8d	8ff'\	.	8F\	-cze,	.	.	8d\	-cze,	.	.	8a/	-cze,	.	.	8dd\	-cze,	-a	.	.	.	.
8FF'</ 8AA 8F	8a'/ 8dd	.	16F\	dar-	.	.	16d\	dar-	.	.	16a/	dar-	.	.	16dd\	dar-	la	.	.	.	.
.	.	.	16F\	-mo	.	.	16d\	-mo	.	.	16a/	-mo	.	.	16dd\	-mo	sua	.	.	.	.
*	*	*	*	*Xij	*	*	*	*Xij	*	*	*	*Xij	*	*	*	*	*	*	*	*	*
!!LO:PB:g=original
=63	=63	=63	=63	=63	=63	=63	=63	=63	=63	=63	=63	=63	=63	=63	=63	=63	=63	=63	=63	=63	=63
!	!LO:TX:a:t=|:problem	!	!	!	!	!	!	!	!	!	!	!	!	!	!	!	!	!	!	!	!
8DD/L 8AA 8D	8a\L 8ff	.	8D\	że-	.	.	8d\	że-	.	.	8a/	że-	.	.	8ff\	że-	pre-	.	2ryy	.	.
*	*	*	*	*ij	*	*	*	*ij	*	*	*	*ij	*	*	*	*	*	*	*	*	*
!	!LO:TX:a:t=|:problem	!	!	!	!	!	!	!	!	!	!	!	!	!	!	!	!	!	!	!	!
8FF/ 8AA 8F	8a\ 8dd	.	8F\	-brze,	.	.	8d\	-brze,	.	.	8a/	-brze,	.	.	8dd\	-brze,	-ce,	.	.	.	.
!	!LO:TX:a:t=|:problem	!	!	!	!	!	!	!	!	!	!	!	!	!	!	!	!	!	!	!	!
8DD/ 8AA 8D	8a\ 8ff	.	8D\	dar-	.	.	8d\	dar-	.	.	8a/	dar-	.	.	8ff\	dar-	va-	.	.	.	.
!	!LO:TX:a:t=|:problem	!	!	!	!	!	!	!	!	!	!	!	!	!	!	!	!	!	!	!	!
8FF/J 8AA 8F	8a\J 8dd	.	16F\LL	-mo-	.	.	8d\	-mo	.	.	8a/	-mo	.	.	8dd\	-mo	-no il	.	.	.	.
.	.	.	16A\JJ	.	.	.	.	.	.	.	.	.	.	.	.	.	.	.	.	.	.
=64	=64	=64	=64	=64	=64	=64	=64	=64	=64	=64	=64	=64	=64	=64	=64	=64	=64	=64	=64	=64	=64
!	!LO:TX:a:t=|:problem	!	!	!	!	!	!	!	!	!	!	!	!	!	!	!	!	!	!	!	!
8DD/ 8AA 8D	8a\ 8ff	.	[>2d\	-pła-	.	.	[>2f\	pła-	.	.	[<2a/	pła-	.	.	[>2aa\	pła-	pian-	.	2ryy	.	.
*	*	*	*	*Xij	*	*	*	*Xij	*	*	*	*Xij	*	*	*	*	*	*	*	*	*
16D'>\LL 16A	16f'</LL 16dd	.	.	.	.	.	.	.	.	.	.	.	.	.	.	.	.	.	.	.	.
16D'>\JJ 16A	16f'</JJ 16dd	.	.	.	.	.	.	.	.	.	.	.	.	.	.	.	.	.	.	.	.
8D'>\L 8A	8f'</L 8dd	.	.	.	.	.	.	.	.	.	.	.	.	.	.	.	.	.	.	.	.
16D'>\L 16A	16f'</L 16a	.	.	.	.	.	.	.	.	.	.	.	.	.	.	.	.	.	.	.	.
16D'>\JJ 16A	16f'</JJ 16a	.	.	.	.	.	.	.	.	.	.	.	.	.	.	.	.	.	.	.	.
=65	=65	=65	=65	=65	=65	=65	=65	=65	=65	=65	=65	=65	=65	=65	=65	=65	=65	=65	=65	=65	=65
8D'>\L 8A	8f'</L 8a	.	2d\]	.	.	.	2f\]	.	.	.	2a/]	.	.	.	2aa\]	.	.	.	2ryy	.	.
16D'>\L 16A	16d'</L 16f	.	.	.	.	.	.	.	.	.	.	.	.	.	.	.	.	.	.	.	.
16D'>\JJ 16A	16d'</JJ 16f	.	.	.	.	.	.	.	.	.	.	.	.	.	.	.	.	.	.	.	.
8D'>\ 8A	8d'</L 8f	.	.	.	.	.	.	.	.	.	.	.	.	.	.	.	.	.	.	.	.
16DD'</LL 16D	16d'</L	.	.	.	.	.	.	.	.	.	.	.	.	.	.	.	.	.	.	.	.
16DD'</JJ 16D	16d'</JJ	.	.	.	.	.	.	.	.	.	.	.	.	.	.	.	.	.	.	.	.
!	!	!	!	!	!	!	!LO:CL:ed	!	!	!	!	!	!	!	!	!	!	!	!	!	!
*	*	*	*	*	*	*	*clefG2	*	*	*	*	*	*	*	*	*	*	*	*	*	*
!!LO:LB:g=original
=66	=66	=66	=66	=66	=66	=66	=66	=66	=66	=66	=66	=66	=66	=66	=66	=66	=66	=66	=66	=66	=66
4.DD/ 4.D	4.d/	>	4D\	-cze.	.	.	4d/	-cze.	.	.	4d/	-cze.	.	.	4dd\	-cze.	-to!	.	2ryy	.	.
.	.	.	4r	.	.	.	4r	.	.	.	4r	.	.	.	4r	.	.	.	.	.	.
16DD/LL 16D	16d/LL	]	.	.	.	.	.	.	.	.	.	.	.	.	.	.	.	.	.	.	.
16DD/JJ 16D	16d/JJ	.	.	.	.	.	.	.	.	.	.	.	.	.	.	.	.	.	.	.	.
=67	=67	=67	=67	=67	=67	=67	=67	=67	=67	=67	=67	=67	=67	=67	=67	=67	=67	=67	=67	=67	=67
8DD/ 8D	8d/L	.	2r	.	.	.	2r	.	.	.	2r	.	.	.	2r	.	.	.	2ryy	.	.
8GG\L 8D	8G</ 8B-< 8d	.	.	.	.	.	.	.	.	.	.	.	.	.	.	.	.	.	.	.	.
8DD\ 8D	8F</ 8A< 8d	.	.	.	.	.	.	.	.	.	.	.	.	.	.	.	.	.	.	.	.
8GG\J 8D	8G</J 8B-< 8d	.	.	.	.	.	.	.	.	.	.	.	.	.	.	.	.	.	.	.	.
=68	=68	=68	=68	=68	=68	=68	=68	=68	=68	=68	=68	=68	=68	=68	=68	=68	=68	=68	=68	=68	=68
!	!LO:TX:b:i:t=fine	!	!LO:TX:b:i:t=fine	!	!	!	!LO:TX:a:t=P:problem=fermaty nad i pod kreską końcową	!	!	!	!LO:TX:b:i:t=fine	!	!	!	!	!	!	!	!	!	!
2DD;<\ 2D	2F<;>/ 2A< 2d	.	2r	.	.	.	2r	.	.	.	2r	.	.	.	2r	.	.	.	2ryy	.	.
==	==	==	==	==	==	==	==	==	==	==	==	==	==	==	==	==	==	==	==	==	==
*-	*-	*-	*-	*-	*-	*-	*-	*-	*-	*-	*-	*-	*-	*-	*-	*-	*-	*-	*-	*-	*-
!!!system-decoration: g1,[(g2)],[(g3)]
!!!RDF**kern: > = above
!!!RDF**kern: < = below
!!!ENC: Anastazja Marusiak
!!!END: 2021-09-19
!!!EED: Jędrzej Mróz
!!!ESR: 2021-10-12
